;FLAVOR:Marlin
;TIME:10027
;Filament used: 4.55808m
;Layer height: 0.1
;MINX:29.858
;MINY:28.667
;MINZ:0.3
;MAXX:82.456
;MAXY:86.758
;MAXZ:40
;Generated with Cura_SteamEngine 4.4.0
M104 S200
M105
M109 S200
M82 ;absolute extrusion mode
G28 ;Home
G1 Z15.0 F6000 ;Move the platform down 15mm
;Prime the extruder
G92 E0
G1 F200 E3
G92 E0
G92 E0
G92 E0
G1 F1500 E-6.5
;LAYER_COUNT:398
;LAYER:0
M107
G0 F3600 X65.685 Y30.372 Z0.3
;TYPE:SKIRT
G1 F1500 E0
G1 X65.95 Y29.96 E0.02444
G1 X66.211 Y29.663 E0.04417
G1 X66.328 Y29.546 E0.05242
G1 X66.701 Y29.229 E0.07684
G1 X67.121 Y28.977 E0.10128
G1 X67.576 Y28.797 E0.12569
G1 X68.054 Y28.693 E0.1501
G1 X68.449 Y28.667 E0.16984
G1 X71.701 Y28.667 E0.33209
G1 X72.189 Y28.707 E0.35652
G1 X72.664 Y28.826 E0.38095
G1 X73.113 Y29.02 E0.40535
G1 X73.525 Y29.285 E0.42979
G1 X73.822 Y29.546 E0.44951
G1 X73.939 Y29.663 E0.45777
G1 X74.256 Y30.036 E0.48219
G1 X74.508 Y30.456 E0.50663
G1 X74.688 Y30.911 E0.53104
G1 X74.792 Y31.389 E0.55544
G1 X74.818 Y31.782 E0.57509
G1 X74.819 Y33.535 E0.66255
G1 X75.231 Y33.372 E0.68466
G1 X75.709 Y33.268 E0.70906
G1 X76.104 Y33.242 E0.72881
G1 X79.356 Y33.242 E0.89105
G1 X79.844 Y33.282 E0.91548
G1 X80.319 Y33.401 E0.93991
G1 X80.768 Y33.595 E0.96431
G1 X81.18 Y33.86 E0.98875
G1 X81.543 Y34.188 E1.01316
G1 X81.848 Y34.571 E1.03759
G1 X82.086 Y34.999 E1.06202
G1 X82.252 Y35.459 E1.08642
G1 X82.341 Y35.94 E1.11082
G1 X82.356 Y36.228 E1.12521
G1 X82.456 Y56.99 E2.16104
G1 X82.418 Y57.478 E2.18546
G1 X82.302 Y57.953 E2.20986
G1 X82.11 Y58.403 E2.23427
G1 X81.847 Y58.816 E2.25869
G1 X81.57 Y59.133 E2.2797
G1 X54.658 Y85.857 E4.17186
G1 X54.284 Y86.172 E4.19626
G1 X53.698 Y86.497 E4.22969
G1 X53.626 Y86.527 E4.23358
G1 X53.16 Y86.678 E4.25802
G1 X52.472 Y86.758 E4.29258
G1 X40.63 Y86.758 E4.88338
G1 X40.142 Y86.718 E4.9078
G1 X39.667 Y86.599 E4.93223
G1 X39.218 Y86.405 E4.95664
G1 X38.806 Y86.14 E4.98108
G1 X38.509 Y85.879 E5.0008
G1 X38.392 Y85.762 E5.00906
G1 X38.075 Y85.389 E5.03348
G1 X37.823 Y84.969 E5.05791
G1 X37.643 Y84.514 E5.08233
G1 X37.539 Y84.036 E5.10673
G1 X37.513 Y83.641 E5.12648
G1 X37.513 Y82.183 E5.19922
G1 X32.975 Y82.183 E5.42562
G1 X32.487 Y82.143 E5.45005
G1 X32.012 Y82.024 E5.47448
G1 X31.563 Y81.83 E5.49888
G1 X31.151 Y81.565 E5.52332
G1 X30.854 Y81.304 E5.54305
G1 X30.737 Y81.187 E5.5513
G1 X30.42 Y80.814 E5.57572
G1 X30.168 Y80.394 E5.60016
G1 X29.988 Y79.939 E5.62457
G1 X29.884 Y79.461 E5.64898
G1 X29.858 Y79.066 E5.66873
G1 X29.858 Y77.308 E5.75643
G1 X29.898 Y76.82 E5.78086
G1 X30.017 Y76.345 E5.80529
G1 X30.211 Y75.896 E5.82969
G1 X30.476 Y75.484 E5.85413
G1 X30.737 Y75.187 E5.87386
G1 X30.854 Y75.07 E5.88212
G1 X31.227 Y74.753 E5.90654
G1 X31.647 Y74.501 E5.93097
G1 X32.102 Y74.321 E5.95539
G1 X32.58 Y74.217 E5.97979
G1 X32.973 Y74.191 E5.99944
G1 X41.616 Y74.184 E6.43064
G1 X65.332 Y50.468 E8.10393
G1 X65.332 Y31.784 E9.03608
G1 X65.372 Y31.296 E9.06051
G1 X65.491 Y30.821 E9.08494
G1 X65.685 Y30.372 E9.10934
G0 F3600 X66.084 Y30.478
G1 F1500 X66.494 Y29.946 E9.14285
G1 X66.611 Y29.829 E9.15111
G1 X66.96 Y29.536 E9.17384
G1 X67.355 Y29.309 E9.19657
G1 X67.783 Y29.154 E9.21928
G1 X68.449 Y29.067 E9.25279
G1 X71.701 Y29.067 E9.41503
G1 X72.155 Y29.107 E9.43777
G1 X72.595 Y29.225 E9.4605
G1 X73.007 Y29.419 E9.48322
G1 X73.539 Y29.829 E9.51673
G1 X73.656 Y29.946 E9.52498
G1 X73.949 Y30.295 E9.54772
G1 X74.176 Y30.69 E9.57044
G1 X74.331 Y31.118 E9.59315
G1 X74.418 Y31.782 E9.62656
G1 X74.42 Y34.275 E9.75094
G1 X74.615 Y34.111 E9.76365
G1 X75.01 Y33.884 E9.78638
G1 X75.438 Y33.729 E9.80909
G1 X76.104 Y33.642 E9.8426
G1 X79.356 Y33.642 E10.00484
G1 X79.81 Y33.682 E10.02758
G1 X80.25 Y33.8 E10.05031
G1 X80.662 Y33.994 E10.07303
G1 X81.035 Y34.257 E10.0958
G1 X81.356 Y34.58 E10.11852
G1 X81.615 Y34.955 E10.14125
G1 X81.805 Y35.369 E10.16398
G1 X81.92 Y35.81 E10.18672
G1 X81.956 Y36.229 E10.2077
G1 X82.056 Y56.991 E11.24353
G1 X82.018 Y57.446 E11.26631
G1 X81.902 Y57.886 E11.28901
G1 X81.71 Y58.299 E11.31173
G1 X81.45 Y58.673 E11.33446
G1 X81.288 Y58.849 E11.34639
G1 X54.376 Y85.573 E13.23856
G1 X54.026 Y85.864 E13.26127
G1 X53.544 Y86.128 E13.28869
G1 X53.472 Y86.158 E13.29258
G1 X53.038 Y86.296 E13.3153
G1 X52.472 Y86.358 E13.3437
G1 X40.63 Y86.358 E13.9345
G1 X40.176 Y86.318 E13.95724
G1 X39.736 Y86.2 E13.97997
G1 X39.324 Y86.006 E14.00269
G1 X38.792 Y85.596 E14.0362
G1 X38.675 Y85.479 E14.04445
G1 X38.382 Y85.13 E14.06719
G1 X38.155 Y84.735 E14.08992
G1 X38 Y84.307 E14.11263
G1 X37.913 Y83.641 E14.14614
G1 X37.913 Y81.883 E14.23384
G1 X37.922 Y81.783 E14.23885
G1 X32.975 Y81.783 E14.48566
G1 X32.521 Y81.743 E14.5084
G1 X32.081 Y81.625 E14.53112
G1 X31.669 Y81.431 E14.55384
G1 X31.137 Y81.021 E14.58735
G1 X31.02 Y80.904 E14.59561
G1 X30.727 Y80.555 E14.61834
G1 X30.5 Y80.16 E14.64107
G1 X30.345 Y79.732 E14.66378
G1 X30.258 Y79.066 E14.69729
G1 X30.258 Y77.308 E14.785
G1 X30.298 Y76.854 E14.80774
G1 X30.416 Y76.414 E14.83046
G1 X30.61 Y76.002 E14.85318
G1 X31.02 Y75.47 E14.88669
G1 X31.137 Y75.353 E14.89495
G1 X31.486 Y75.06 E14.91768
G1 X31.881 Y74.833 E14.94041
G1 X32.309 Y74.678 E14.96312
G1 X32.973 Y74.591 E14.99653
G1 X41.782 Y74.584 E15.43601
G1 X65.732 Y50.634 E17.12582
G1 X65.732 Y31.784 E18.06625
G1 X65.772 Y31.33 E18.08898
G1 X65.89 Y30.89 E18.11171
G1 X66.084 Y30.478 E18.13443
G0 F3600 X66.483 Y30.593
G1 F1500 X66.776 Y30.228 E18.15778
G1 X66.893 Y30.111 E18.16604
G1 X67.217 Y29.845 E18.18695
G1 X67.584 Y29.644 E18.20783
G1 X67.984 Y29.517 E18.22876
G1 X68.449 Y29.467 E18.2521
G1 X71.701 Y29.467 E18.41434
G1 X72.118 Y29.507 E18.43524
G1 X72.52 Y29.625 E18.45614
G1 X72.892 Y29.818 E18.47705
G1 X73.257 Y30.111 E18.5004
G1 X73.374 Y30.228 E18.50866
G1 X73.64 Y30.552 E18.52957
G1 X73.841 Y30.919 E18.55045
G1 X73.968 Y31.319 E18.57138
G1 X74.018 Y31.783 E18.59467
G1 X74.02 Y35.395 E18.77487
G1 X74.138 Y35.168 E18.78763
G1 X74.431 Y34.803 E18.81099
G1 X74.548 Y34.686 E18.81924
G1 X74.872 Y34.42 E18.84015
G1 X75.239 Y34.219 E18.86103
G1 X75.639 Y34.092 E18.88197
G1 X76.104 Y34.042 E18.9053
G1 X79.356 Y34.042 E19.06754
G1 X79.773 Y34.082 E19.08844
G1 X80.175 Y34.2 E19.10935
G1 X80.547 Y34.393 E19.13025
G1 X80.876 Y34.652 E19.15114
G1 X81.15 Y34.969 E19.17205
G1 X81.359 Y35.332 E19.19295
G1 X81.495 Y35.729 E19.21388
G1 X81.556 Y36.231 E19.23911
G1 X81.656 Y56.993 E20.27494
G1 X81.618 Y57.411 E20.29588
G1 X81.502 Y57.813 E20.31676
G1 X81.311 Y58.187 E20.33771
G1 X81.006 Y58.565 E20.36194
G1 X54.094 Y85.289 E22.25411
G1 X53.77 Y85.555 E22.27502
G1 X53.39 Y85.759 E22.29654
G1 X53.318 Y85.789 E22.30043
G1 X52.918 Y85.912 E22.32131
G1 X52.472 Y85.958 E22.34368
G1 X40.63 Y85.958 E22.93448
G1 X40.213 Y85.918 E22.95538
G1 X39.811 Y85.8 E22.97628
G1 X39.439 Y85.607 E22.99719
G1 X39.074 Y85.314 E23.02054
G1 X38.957 Y85.197 E23.02879
G1 X38.691 Y84.873 E23.04971
G1 X38.49 Y84.506 E23.07058
G1 X38.363 Y84.106 E23.09152
G1 X38.313 Y83.641 E23.11485
G1 X38.313 Y81.883 E23.20256
G1 X38.353 Y81.466 E23.22346
G1 X38.377 Y81.383 E23.22777
G1 X32.975 Y81.383 E23.49728
G1 X32.558 Y81.343 E23.51818
G1 X32.156 Y81.225 E23.53908
G1 X31.784 Y81.032 E23.55999
G1 X31.419 Y80.739 E23.58334
G1 X31.302 Y80.622 E23.59159
G1 X31.036 Y80.298 E23.61251
G1 X30.835 Y79.931 E23.63338
G1 X30.708 Y79.531 E23.65432
G1 X30.658 Y79.066 E23.67766
G1 X30.658 Y77.308 E23.76536
G1 X30.698 Y76.891 E23.78626
G1 X30.816 Y76.489 E23.80716
G1 X31.009 Y76.117 E23.82807
G1 X31.302 Y75.752 E23.85142
G1 X31.419 Y75.635 E23.85968
G1 X31.743 Y75.369 E23.88059
G1 X32.11 Y75.168 E23.90147
G1 X32.51 Y75.041 E23.92241
G1 X32.973 Y74.991 E23.94564
G1 X41.946 Y74.984 E24.3933
G1 X66.132 Y50.798 E26.09976
G1 X66.132 Y31.784 E27.04837
G1 X66.172 Y31.367 E27.06927
G1 X66.29 Y30.965 E27.09017
G1 X66.483 Y30.593 E27.11108
G0 F3600 X66.69 Y31.047
G1 F1500 X66.88 Y30.72 E27.12995
G1 X67.059 Y30.511 E27.14368
G1 X67.176 Y30.394 E27.15193
G1 X67.471 Y30.156 E27.17084
G1 X67.809 Y29.985 E27.18974
G1 X68.175 Y29.888 E27.20863
G1 X68.449 Y29.867 E27.22234
G1 X71.701 Y29.867 E27.38458
G1 X72.078 Y29.907 E27.4035
G1 X72.438 Y30.025 E27.4224
G1 X72.765 Y30.215 E27.44127
G1 X72.974 Y30.394 E27.45499
G1 X73.091 Y30.511 E27.46325
G1 X73.329 Y30.806 E27.48216
G1 X73.5 Y31.144 E27.50106
G1 X73.597 Y31.51 E27.51995
G1 X73.618 Y31.783 E27.53361
G1 X73.632 Y52.355 E28.55995
G1 X73.592 Y52.732 E28.57886
G1 X73.489 Y53.06 E28.59602
G1 X73.458 Y53.133 E28.59997
G1 X73.274 Y53.464 E28.61887
G1 X73.069 Y53.706 E28.63469
G1 X46.629 Y79.961 E30.49366
G1 X49.767 Y79.959 E30.65021
G1 X74.187 Y55.539 E32.37318
G1 X74.187 Y36.359 E33.33007
G1 X74.227 Y35.982 E33.34899
G1 X74.345 Y35.622 E33.36789
G1 X74.535 Y35.295 E33.38675
G1 X74.714 Y35.086 E33.40048
G1 X74.831 Y34.969 E33.40874
G1 X75.126 Y34.731 E33.42765
G1 X75.464 Y34.56 E33.44655
G1 X75.83 Y34.463 E33.46544
G1 X76.104 Y34.442 E33.47915
G1 X79.356 Y34.442 E33.64139
G1 X79.733 Y34.482 E33.6603
G1 X80.093 Y34.6 E33.6792
G1 X80.42 Y34.79 E33.69807
G1 X80.701 Y35.045 E33.717
G1 X80.921 Y35.354 E33.73593
G1 X81.073 Y35.701 E33.75483
G1 X81.156 Y36.233 E33.78169
G1 X81.256 Y56.995 E34.81752
G1 X81.218 Y57.372 E34.83643
G1 X81.102 Y57.733 E34.85534
G1 X80.913 Y58.061 E34.87423
G1 X80.724 Y58.281 E34.8887
G1 X53.812 Y85.005 E36.78087
G1 X53.517 Y85.242 E36.79975
G1 X53.236 Y85.39 E36.81559
G1 X53.164 Y85.42 E36.81948
G1 X52.801 Y85.528 E36.83838
G1 X52.472 Y85.558 E36.85486
G1 X40.63 Y85.558 E37.44566
G1 X40.253 Y85.518 E37.46457
G1 X39.893 Y85.4 E37.48347
G1 X39.566 Y85.21 E37.50234
G1 X39.357 Y85.031 E37.51607
G1 X39.24 Y84.914 E37.52432
G1 X39.002 Y84.619 E37.54324
G1 X38.831 Y84.281 E37.56213
G1 X38.734 Y83.915 E37.58102
G1 X38.713 Y83.641 E37.59473
G1 X38.713 Y81.883 E37.68244
G1 X38.753 Y81.506 E37.70135
G1 X38.871 Y81.146 E37.72026
G1 X38.966 Y80.983 E37.72967
G1 X32.975 Y80.983 E38.02856
G1 X32.598 Y80.943 E38.04747
G1 X32.238 Y80.825 E38.06637
G1 X31.911 Y80.635 E38.08524
G1 X31.702 Y80.456 E38.09897
G1 X31.585 Y80.339 E38.10723
G1 X31.347 Y80.044 E38.12614
G1 X31.176 Y79.706 E38.14503
G1 X31.079 Y79.34 E38.16393
G1 X31.058 Y79.066 E38.17764
G1 X31.058 Y77.308 E38.26534
G1 X31.098 Y76.931 E38.28426
G1 X31.216 Y76.571 E38.30316
G1 X31.406 Y76.244 E38.32203
G1 X31.585 Y76.035 E38.33575
G1 X31.702 Y75.918 E38.34401
G1 X31.997 Y75.68 E38.36292
G1 X32.335 Y75.509 E38.38182
G1 X32.701 Y75.412 E38.40071
G1 X32.974 Y75.391 E38.41437
G1 X42.112 Y75.384 E38.87026
G1 X66.532 Y50.964 E40.59323
G1 X66.532 Y31.784 E41.55012
G1 X66.572 Y31.407 E41.56904
G1 X66.69 Y31.047 E41.58794
G0 F3600 X67.089 Y31.14
G1 F1500 X67.342 Y30.794 E41.60932
G1 X67.459 Y30.677 E41.61758
G1 X67.722 Y30.471 E41.63424
G1 X68.026 Y30.332 E41.65092
G1 X68.449 Y30.267 E41.67227
G1 X71.701 Y30.267 E41.83451
G1 X72.033 Y30.307 E41.8512
G1 X72.345 Y30.424 E41.86782
G1 X72.691 Y30.677 E41.88921
G1 X72.808 Y30.794 E41.89746
G1 X73.014 Y31.057 E41.91413
G1 X73.153 Y31.361 E41.9308
G1 X73.218 Y31.783 E41.95211
G1 X73.232 Y52.355 E42.97845
G1 X73.192 Y52.687 E42.99513
G1 X73.121 Y52.903 E43.00647
G1 X73.09 Y52.976 E43.01043
G1 X72.923 Y53.266 E43.02713
G1 X72.787 Y53.422 E43.03745
G1 X45.875 Y80.146 E44.92962
G1 X45.612 Y80.352 E44.94629
G1 X45.592 Y80.362 E44.9474
G1 X49.934 Y80.358 E45.16402
G1 X74.587 Y55.705 E46.90343
G1 X74.587 Y36.359 E47.8686
G1 X74.627 Y36.027 E47.88529
G1 X74.744 Y35.715 E47.90191
G1 X74.997 Y35.369 E47.92329
G1 X75.114 Y35.252 E47.93155
G1 X75.377 Y35.046 E47.94822
G1 X75.681 Y34.907 E47.96489
G1 X76.104 Y34.842 E47.98624
G1 X79.356 Y34.842 E48.14849
G1 X79.688 Y34.882 E48.16517
G1 X80 Y34.999 E48.1818
G1 X80.277 Y35.187 E48.1985
G1 X80.5 Y35.435 E48.21514
G1 X80.659 Y35.729 E48.23181
G1 X80.743 Y36.053 E48.24851
G1 X80.756 Y36.235 E48.25761
G1 X80.856 Y56.997 E49.29345
G1 X80.818 Y57.329 E49.31012
G1 X80.702 Y57.642 E49.32677
G1 X80.442 Y57.997 E49.34872
G1 X53.53 Y84.721 E51.24089
G1 X53.267 Y84.927 E51.25756
G1 X53.082 Y85.02 E51.26789
G1 X53.01 Y85.05 E51.27178
G1 X52.689 Y85.141 E51.28843
G1 X52.472 Y85.158 E51.29928
G1 X40.63 Y85.158 E51.89008
G1 X40.298 Y85.118 E51.90677
G1 X39.986 Y85.001 E51.92339
G1 X39.64 Y84.748 E51.94478
G1 X39.523 Y84.631 E51.95303
G1 X39.317 Y84.368 E51.9697
G1 X39.178 Y84.064 E51.98638
G1 X39.113 Y83.641 E52.00773
G1 X39.113 Y81.883 E52.09543
G1 X39.153 Y81.551 E52.11212
G1 X39.27 Y81.239 E52.12874
G1 X39.523 Y80.893 E52.15013
G1 X39.64 Y80.776 E52.15838
G1 X39.886 Y80.583 E52.17398
G1 X32.975 Y80.583 E52.51877
G1 X32.643 Y80.543 E52.53545
G1 X32.331 Y80.426 E52.55208
G1 X31.985 Y80.173 E52.57346
G1 X31.868 Y80.056 E52.58172
G1 X31.662 Y79.793 E52.59839
G1 X31.523 Y79.489 E52.61506
G1 X31.458 Y79.066 E52.63641
G1 X31.458 Y77.308 E52.72412
G1 X31.498 Y76.976 E52.7408
G1 X31.615 Y76.664 E52.75743
G1 X31.868 Y76.318 E52.77881
G1 X31.985 Y76.201 E52.78707
G1 X32.248 Y75.995 E52.80373
G1 X32.552 Y75.856 E52.82041
G1 X32.974 Y75.791 E52.84171
G1 X42.279 Y75.783 E53.30594
G1 X66.932 Y51.13 E55.04534
G1 X66.932 Y31.784 E56.01052
G1 X66.972 Y31.452 E56.0272
G1 X67.089 Y31.14 E56.04383
G0 F3600 X67.488 Y31.248
G1 F1500 X67.625 Y31.077 E56.05476
G1 X67.742 Y30.96 E56.06301
G1 X67.968 Y30.791 E56.07709
G1 X68.232 Y30.691 E56.09118
G1 X68.449 Y30.667 E56.10207
G1 X71.701 Y30.667 E56.26431
G1 X71.98 Y30.707 E56.27837
G1 X72.237 Y30.823 E56.29244
G1 X72.408 Y30.96 E56.30337
G1 X72.525 Y31.077 E56.31163
G1 X72.694 Y31.303 E56.32571
G1 X72.794 Y31.567 E56.33979
G1 X72.818 Y31.783 E56.35063
G1 X72.832 Y52.355 E57.37698
G1 X72.752 Y52.747 E57.39694
G1 X72.721 Y52.82 E57.40089
G1 X72.506 Y53.139 E57.42008
G1 X45.594 Y79.863 E59.31225
G1 X45.274 Y80.076 E59.33143
G1 X45.202 Y80.106 E59.33532
G1 X44.817 Y80.183 E59.35491
G1 X32.975 Y80.183 E59.94571
G1 X32.696 Y80.143 E59.95977
G1 X32.439 Y80.027 E59.97384
G1 X32.268 Y79.89 E59.98477
G1 X32.151 Y79.773 E59.99302
G1 X31.982 Y79.547 E60.0071
G1 X31.882 Y79.283 E60.02119
G1 X31.858 Y79.066 E60.03208
G1 X31.858 Y77.308 E60.11979
G1 X31.898 Y77.029 E60.13385
G1 X32.014 Y76.772 E60.14792
G1 X32.151 Y76.601 E60.15885
G1 X32.268 Y76.484 E60.1671
G1 X32.494 Y76.315 E60.18118
G1 X32.758 Y76.215 E60.19527
G1 X32.974 Y76.191 E60.20611
G1 X42.445 Y76.183 E60.67862
G1 X67.332 Y51.296 E62.43453
G1 X67.332 Y31.784 E63.40799
G1 X67.372 Y31.505 E63.42205
G1 X67.488 Y31.248 E63.43612
G0 F3600 X67.772 Y31.569
G1 F1500 X67.908 Y31.36 E63.44856
G1 X68.025 Y31.243 E63.45681
G1 X68.204 Y31.119 E63.46768
G1 X68.449 Y31.067 E63.48017
G1 X71.701 Y31.067 E63.64241
G1 X71.916 Y31.107 E63.65332
G1 X72.125 Y31.243 E63.66577
G1 X72.242 Y31.36 E63.67402
G1 X72.366 Y31.539 E63.68488
G1 X72.418 Y31.784 E63.69738
G1 X72.432 Y52.356 E64.72372
G1 X72.384 Y52.591 E64.73569
G1 X72.353 Y52.664 E64.73964
G1 X72.224 Y52.855 E64.75114
G1 X45.312 Y79.579 E66.64331
G1 X45.12 Y79.707 E66.65482
G1 X45.048 Y79.737 E66.65871
G1 X44.817 Y79.783 E66.67046
G1 X32.975 Y79.783 E67.26126
G1 X32.76 Y79.743 E67.27217
G1 X32.551 Y79.607 E67.28461
G1 X32.434 Y79.49 E67.29287
G1 X32.31 Y79.311 E67.30373
G1 X32.258 Y79.066 E67.31623
G1 X32.258 Y77.308 E67.40394
G1 X32.298 Y77.093 E67.41485
G1 X32.434 Y76.884 E67.42729
G1 X32.551 Y76.767 E67.43554
G1 X32.73 Y76.643 E67.4464
G1 X32.975 Y76.591 E67.4589
G1 X42.611 Y76.583 E67.93964
G1 X67.732 Y51.462 E69.71206
G1 X67.732 Y31.784 E70.6938
G1 X67.772 Y31.569 E70.70471
G0 F3600 X68.191 Y31.643
G1 F1500 X68.308 Y31.526 E70.71297
G1 X68.449 Y31.467 E70.7206
G1 X71.701 Y31.467 E70.88284
G1 X71.842 Y31.526 E70.89046
G1 X71.959 Y31.643 E70.89872
G1 X72.018 Y31.784 E70.90634
G1 X72.032 Y52.356 E71.93269
G1 X72.016 Y52.434 E71.93666
G1 X71.985 Y52.507 E71.94061
G1 X71.942 Y52.571 E71.94446
G1 X45.03 Y79.295 E73.83663
G1 X44.966 Y79.338 E73.84047
G1 X44.894 Y79.368 E73.84437
G1 X44.817 Y79.383 E73.84828
G1 X32.975 Y79.383 E74.43908
G1 X32.834 Y79.324 E74.44671
G1 X32.717 Y79.207 E74.45496
G1 X32.658 Y79.066 E74.46259
G1 X32.658 Y77.308 E74.55029
G1 X32.717 Y77.167 E74.55792
G1 X32.834 Y77.05 E74.56617
G1 X32.975 Y76.991 E74.5738
G1 X42.777 Y76.983 E75.06282
G1 X68.132 Y51.628 E76.85175
G1 X68.132 Y31.784 E77.84178
G1 X68.191 Y31.643 E77.8494
G1 F1500 E71.3494
G0 F3600 X67.862 Y31.314
G0 X71.975 Y31.006
G0 X75.143 Y35.823
