;FLAVOR:Marlin
;TIME:3468
;Filament used: 1.63047m
;Layer height: 0.1
;MINX:19.637
;MINY:18.32
;MINZ:0.3
;MAXX:71.188
;MAXY:70.057
;MAXZ:10
;Generated with Cura_SteamEngine 4.4.0
M104 S200
M105
M109 S200
M82 ;absolute extrusion mode
G28 ;Home
G1 Z15.0 F6000 ;Move the platform down 15mm
;Prime the extruder
G92 E0
G1 F200 E3
G92 E0
G92 E0
G92 E0
G1 F1500 E-6.5
;LAYER_COUNT:98
;LAYER:0
M107
G0 F3600 X20.546 Y40.168 Z0.3
;TYPE:SKIRT
G1 F1500 E0
G1 X41.485 Y19.229 E1.47736
G1 X41.858 Y18.912 E1.50178
G1 X42.452 Y18.581 E1.53571
G1 X42.524 Y18.551 E1.5396
G1 X42.99 Y18.4 E1.56404
G1 X43.678 Y18.32 E1.59859
G1 X48.52 Y18.32 E1.84016
G1 X49.008 Y18.36 E1.86459
G1 X49.483 Y18.479 E1.88902
G1 X49.932 Y18.673 E1.91342
G1 X50.344 Y18.938 E1.93786
G1 X50.641 Y19.199 E1.95759
G1 X50.758 Y19.316 E1.96584
G1 X51.075 Y19.689 E1.99026
G1 X51.327 Y20.109 E2.0147
G1 X51.507 Y20.564 E2.03911
G1 X51.611 Y21.042 E2.06352
G1 X51.637 Y21.437 E2.08327
G1 X51.637 Y24.942 E2.25813
G1 X55.281 Y24.942 E2.43993
G1 X55.769 Y24.982 E2.46436
G1 X56.244 Y25.101 E2.48879
G1 X56.693 Y25.295 E2.51319
G1 X57.105 Y25.56 E2.53763
G1 X57.402 Y25.821 E2.55736
G1 X57.519 Y25.938 E2.56561
G1 X57.836 Y26.311 E2.59003
G1 X58.088 Y26.731 E2.61447
G1 X58.268 Y27.186 E2.63888
G1 X58.372 Y27.664 E2.66329
G1 X58.398 Y28.059 E2.68304
G1 X58.398 Y31.605 E2.85995
G1 X61.716 Y31.605 E3.02548
G1 X62.204 Y31.645 E3.04991
G1 X62.679 Y31.764 E3.07434
G1 X63.128 Y31.958 E3.09874
G1 X63.54 Y32.223 E3.12318
G1 X63.837 Y32.484 E3.14291
G1 X63.954 Y32.601 E3.15116
G1 X64.271 Y32.974 E3.17559
G1 X64.523 Y33.394 E3.20002
G1 X64.703 Y33.849 E3.22443
G1 X64.807 Y34.327 E3.24884
G1 X64.833 Y34.722 E3.26859
G1 X64.833 Y38.057 E3.43497
G1 X68.071 Y38.057 E3.59652
G1 X68.559 Y38.097 E3.62094
G1 X69.034 Y38.216 E3.64537
G1 X69.483 Y38.41 E3.66978
G1 X69.895 Y38.675 E3.69422
G1 X70.192 Y38.936 E3.71394
G1 X70.309 Y39.053 E3.7222
G1 X70.626 Y39.426 E3.74662
G1 X70.878 Y39.846 E3.77106
G1 X71.058 Y40.301 E3.79547
G1 X71.162 Y40.779 E3.81987
G1 X71.188 Y41.174 E3.83962
G1 X71.188 Y45.94 E4.0774
G1 X71.148 Y46.428 E4.10183
G1 X71.029 Y46.903 E4.12626
G1 X70.835 Y47.352 E4.15066
G1 X70.57 Y47.764 E4.1751
G1 X70.309 Y48.061 E4.19482
G1 X70.192 Y48.178 E4.20308
G1 X69.819 Y48.495 E4.2275
G1 X69.399 Y48.747 E4.25194
G1 X68.944 Y48.927 E4.27635
G1 X68.466 Y49.031 E4.30075
G1 X68.071 Y49.057 E4.3205
G1 X64.429 Y49.057 E4.5022
G1 X50.188 Y63.298 E5.50698
G1 X50.188 Y66.94 E5.68868
G1 X50.148 Y67.428 E5.71311
G1 X50.029 Y67.903 E5.73754
G1 X49.835 Y68.352 E5.76194
G1 X49.57 Y68.764 E5.78638
G1 X49.309 Y69.061 E5.80611
G1 X49.192 Y69.178 E5.81436
G1 X48.819 Y69.495 E5.83879
G1 X48.399 Y69.747 E5.86322
G1 X47.944 Y69.927 E5.88763
G1 X47.466 Y70.031 E5.91204
G1 X47.071 Y70.057 E5.93179
G1 X42.305 Y70.057 E6.16957
G1 X41.817 Y70.017 E6.19399
G1 X41.342 Y69.898 E6.21842
G1 X40.893 Y69.704 E6.24283
G1 X40.481 Y69.439 E6.26727
G1 X40.184 Y69.178 E6.28699
G1 X40.067 Y69.061 E6.29525
G1 X39.75 Y68.688 E6.31967
G1 X39.498 Y68.268 E6.3441
G1 X39.318 Y67.813 E6.36852
G1 X39.214 Y67.335 E6.39292
G1 X39.188 Y66.94 E6.41267
G1 X39.188 Y63.605 E6.57905
G1 X35.95 Y63.605 E6.7406
G1 X35.462 Y63.565 E6.76503
G1 X34.987 Y63.446 E6.78946
G1 X34.538 Y63.252 E6.81386
G1 X34.126 Y62.987 E6.8383
G1 X33.829 Y62.726 E6.85802
G1 X33.712 Y62.609 E6.86628
G1 X33.395 Y62.236 E6.8907
G1 X33.143 Y61.816 E6.91514
G1 X32.963 Y61.361 E6.93955
G1 X32.859 Y60.883 E6.96396
G1 X32.833 Y60.488 E6.9837
G1 X32.833 Y56.942 E7.16061
G1 X29.515 Y56.942 E7.32615
G1 X29.027 Y56.902 E7.35058
G1 X28.552 Y56.783 E7.37501
G1 X28.103 Y56.589 E7.39941
G1 X27.691 Y56.324 E7.42385
G1 X27.394 Y56.063 E7.44358
G1 X27.277 Y55.946 E7.45183
G1 X26.96 Y55.573 E7.47625
G1 X26.708 Y55.153 E7.50069
G1 X26.528 Y54.698 E7.5251
G1 X26.424 Y54.22 E7.54951
G1 X26.398 Y53.825 E7.56926
G1 X26.398 Y50.32 E7.74412
G1 X22.754 Y50.32 E7.92592
G1 X22.266 Y50.28 E7.95035
G1 X21.791 Y50.161 E7.97478
G1 X21.342 Y49.967 E7.99918
G1 X20.93 Y49.702 E8.02362
G1 X20.633 Y49.441 E8.04335
G1 X20.516 Y49.324 E8.0516
G1 X20.199 Y48.951 E8.07602
G1 X19.947 Y48.531 E8.10046
G1 X19.767 Y48.076 E8.12487
G1 X19.663 Y47.598 E8.14928
G1 X19.637 Y47.203 E8.16903
G1 X19.637 Y42.361 E8.41059
G1 X19.677 Y41.873 E8.43502
G1 X19.868 Y41.207 E8.46959
G1 X19.898 Y41.135 E8.47348
G1 X20.122 Y40.7 E8.49789
G1 X20.546 Y40.168 E8.53183
G0 F3600 X20.829 Y40.451
G1 F1500 X41.768 Y19.512 E10.00919
G1 X42.117 Y19.219 E10.03192
G1 X42.606 Y18.95 E10.05977
G1 X42.678 Y18.92 E10.06366
G1 X43.112 Y18.782 E10.08638
G1 X43.678 Y18.72 E10.11479
G1 X48.52 Y18.72 E10.35636
G1 X48.974 Y18.76 E10.37909
G1 X49.414 Y18.878 E10.40182
G1 X49.826 Y19.072 E10.42454
G1 X50.358 Y19.482 E10.45805
G1 X50.475 Y19.599 E10.4663
G1 X50.768 Y19.948 E10.48904
G1 X50.995 Y20.343 E10.51177
G1 X51.15 Y20.771 E10.53448
G1 X51.237 Y21.437 E10.56799
G1 X51.237 Y25.342 E10.76281
G1 X55.281 Y25.342 E10.96456
G1 X55.735 Y25.382 E10.9873
G1 X56.175 Y25.5 E11.01003
G1 X56.587 Y25.694 E11.03275
G1 X57.119 Y26.104 E11.06626
G1 X57.236 Y26.221 E11.07451
G1 X57.529 Y26.57 E11.09725
G1 X57.756 Y26.965 E11.11998
G1 X57.911 Y27.393 E11.14269
G1 X57.998 Y28.059 E11.1762
G1 X57.998 Y32.005 E11.37306
G1 X61.716 Y32.005 E11.55855
G1 X62.17 Y32.045 E11.58129
G1 X62.61 Y32.163 E11.60402
G1 X63.022 Y32.357 E11.62674
G1 X63.554 Y32.767 E11.66025
G1 X63.671 Y32.884 E11.6685
G1 X63.964 Y33.233 E11.69124
G1 X64.191 Y33.628 E11.71397
G1 X64.346 Y34.056 E11.73668
G1 X64.433 Y34.722 E11.77019
G1 X64.433 Y38.457 E11.95653
G1 X68.071 Y38.457 E12.13803
G1 X68.525 Y38.497 E12.16076
G1 X68.965 Y38.615 E12.18349
G1 X69.377 Y38.809 E12.20621
G1 X69.909 Y39.219 E12.23972
G1 X70.026 Y39.336 E12.24798
G1 X70.319 Y39.685 E12.27071
G1 X70.546 Y40.08 E12.29344
G1 X70.701 Y40.508 E12.31615
G1 X70.788 Y41.174 E12.34966
G1 X70.788 Y45.94 E12.58743
G1 X70.748 Y46.394 E12.61017
G1 X70.63 Y46.834 E12.6329
G1 X70.436 Y47.246 E12.65562
G1 X70.026 Y47.778 E12.68913
G1 X69.909 Y47.895 E12.69738
G1 X69.56 Y48.188 E12.72012
G1 X69.165 Y48.415 E12.74285
G1 X68.737 Y48.57 E12.76556
G1 X68.071 Y48.657 E12.79907
G1 X64.263 Y48.657 E12.98905
G1 X49.788 Y63.132 E14.01034
G1 X49.788 Y66.94 E14.20032
G1 X49.748 Y67.394 E14.22306
G1 X49.63 Y67.834 E14.24578
G1 X49.436 Y68.246 E14.2685
G1 X49.026 Y68.778 E14.30201
G1 X48.909 Y68.895 E14.31027
G1 X48.56 Y69.188 E14.333
G1 X48.165 Y69.415 E14.35573
G1 X47.737 Y69.57 E14.37844
G1 X47.071 Y69.657 E14.41195
G1 X42.305 Y69.657 E14.64973
G1 X41.851 Y69.617 E14.67247
G1 X41.411 Y69.499 E14.69519
G1 X40.999 Y69.305 E14.71791
G1 X40.467 Y68.895 E14.75142
G1 X40.35 Y68.778 E14.75968
G1 X40.057 Y68.429 E14.78241
G1 X39.83 Y68.034 E14.80514
G1 X39.675 Y67.606 E14.82785
G1 X39.588 Y66.94 E14.86136
G1 X39.588 Y63.205 E15.0477
G1 X35.95 Y63.205 E15.2292
G1 X35.496 Y63.165 E15.25194
G1 X35.056 Y63.047 E15.27467
G1 X34.644 Y62.853 E15.29738
G1 X34.112 Y62.443 E15.33089
G1 X33.995 Y62.326 E15.33915
G1 X33.702 Y61.977 E15.36188
G1 X33.475 Y61.582 E15.38461
G1 X33.32 Y61.154 E15.40732
G1 X33.233 Y60.488 E15.44083
G1 X33.233 Y56.542 E15.6377
G1 X29.515 Y56.542 E15.82319
G1 X29.061 Y56.502 E15.84593
G1 X28.621 Y56.384 E15.86866
G1 X28.209 Y56.19 E15.89137
G1 X27.677 Y55.78 E15.92488
G1 X27.56 Y55.663 E15.93314
G1 X27.267 Y55.314 E15.95587
G1 X27.04 Y54.919 E15.9786
G1 X26.885 Y54.491 E16.00131
G1 X26.798 Y53.825 E16.03482
G1 X26.798 Y49.92 E16.22964
G1 X22.754 Y49.92 E16.4314
G1 X22.3 Y49.88 E16.45414
G1 X21.86 Y49.762 E16.47686
G1 X21.448 Y49.568 E16.49958
G1 X20.916 Y49.158 E16.53309
G1 X20.799 Y49.041 E16.54135
G1 X20.506 Y48.692 E16.56408
G1 X20.279 Y48.297 E16.58681
G1 X20.124 Y47.869 E16.60952
G1 X20.037 Y47.203 E16.64303
G1 X20.037 Y42.361 E16.8846
G1 X20.077 Y41.907 E16.90734
G1 X20.237 Y41.361 E16.93572
G1 X20.267 Y41.289 E16.93961
G1 X20.478 Y40.885 E16.96235
G1 X20.829 Y40.451 E16.9902
G0 F3600 X21.111 Y40.733
G1 F1500 X42.05 Y19.794 E18.46756
G1 X42.374 Y19.528 E18.48847
G1 X42.76 Y19.319 E18.51037
G1 X42.832 Y19.289 E18.51426
G1 X43.232 Y19.166 E18.53514
G1 X43.678 Y19.12 E18.55751
G1 X48.52 Y19.12 E18.79908
G1 X48.937 Y19.16 E18.81998
G1 X49.339 Y19.278 E18.84088
G1 X49.711 Y19.471 E18.86179
G1 X50.076 Y19.764 E18.88514
G1 X50.193 Y19.881 E18.8934
G1 X50.459 Y20.205 E18.91431
G1 X50.66 Y20.572 E18.93519
G1 X50.787 Y20.972 E18.95612
G1 X50.837 Y21.437 E18.97946
G1 X50.837 Y25.742 E19.19423
G1 X55.281 Y25.742 E19.41595
G1 X55.698 Y25.782 E19.43685
G1 X56.1 Y25.9 E19.45775
G1 X56.472 Y26.093 E19.47866
G1 X56.837 Y26.386 E19.50201
G1 X56.954 Y26.503 E19.51026
G1 X57.22 Y26.827 E19.53118
G1 X57.421 Y27.194 E19.55205
G1 X57.548 Y27.594 E19.57299
G1 X57.598 Y28.059 E19.59632
G1 X57.598 Y32.405 E19.81315
G1 X61.716 Y32.405 E20.01859
G1 X62.133 Y32.445 E20.03949
G1 X62.535 Y32.563 E20.0604
G1 X62.907 Y32.756 E20.0813
G1 X63.272 Y33.049 E20.10465
G1 X63.389 Y33.166 E20.11291
G1 X63.655 Y33.49 E20.13382
G1 X63.856 Y33.857 E20.1547
G1 X63.983 Y34.257 E20.17564
G1 X64.033 Y34.722 E20.19897
G1 X64.033 Y38.857 E20.40527
G1 X68.071 Y38.857 E20.60672
G1 X68.488 Y38.897 E20.62762
G1 X68.89 Y39.015 E20.64852
G1 X69.262 Y39.208 E20.66943
G1 X69.627 Y39.501 E20.69278
G1 X69.744 Y39.618 E20.70104
G1 X70.01 Y39.942 E20.72195
G1 X70.211 Y40.309 E20.74283
G1 X70.338 Y40.709 E20.76377
G1 X70.388 Y41.174 E20.7871
G1 X70.388 Y45.94 E21.02488
G1 X70.348 Y46.357 E21.04578
G1 X70.23 Y46.759 E21.06668
G1 X70.037 Y47.131 E21.08759
G1 X69.744 Y47.496 E21.11094
G1 X69.627 Y47.613 E21.11919
G1 X69.303 Y47.879 E21.14011
G1 X68.936 Y48.08 E21.16098
G1 X68.536 Y48.207 E21.18192
G1 X68.071 Y48.257 E21.20525
G1 X64.099 Y48.257 E21.40342
G1 X49.388 Y62.968 E22.44136
G1 X49.388 Y66.94 E22.63952
G1 X49.348 Y67.357 E22.66042
G1 X49.23 Y67.759 E22.68132
G1 X49.037 Y68.131 E22.70223
G1 X48.744 Y68.496 E22.72558
G1 X48.627 Y68.613 E22.73384
G1 X48.303 Y68.879 E22.75475
G1 X47.936 Y69.08 E22.77563
G1 X47.536 Y69.207 E22.79657
G1 X47.071 Y69.257 E22.8199
G1 X42.305 Y69.257 E23.05768
G1 X41.888 Y69.217 E23.07857
G1 X41.486 Y69.099 E23.09948
G1 X41.114 Y68.906 E23.12039
G1 X40.749 Y68.613 E23.14374
G1 X40.632 Y68.496 E23.15199
G1 X40.366 Y68.172 E23.17291
G1 X40.165 Y67.805 E23.19378
G1 X40.038 Y67.405 E23.21472
G1 X39.988 Y66.94 E23.23805
G1 X39.988 Y62.805 E23.44435
G1 X35.95 Y62.805 E23.6458
G1 X35.533 Y62.765 E23.6667
G1 X35.131 Y62.647 E23.68761
G1 X34.759 Y62.454 E23.70851
G1 X34.394 Y62.161 E23.73187
G1 X34.277 Y62.044 E23.74012
G1 X34.011 Y61.72 E23.76104
G1 X33.81 Y61.353 E23.78191
G1 X33.683 Y60.953 E23.80285
G1 X33.633 Y60.488 E23.82618
G1 X33.633 Y56.142 E24.043
G1 X29.515 Y56.142 E24.24845
G1 X29.098 Y56.102 E24.26935
G1 X28.696 Y55.984 E24.29025
G1 X28.324 Y55.791 E24.31116
G1 X27.959 Y55.498 E24.33451
G1 X27.842 Y55.381 E24.34277
G1 X27.576 Y55.057 E24.36368
G1 X27.375 Y54.69 E24.38456
G1 X27.248 Y54.29 E24.4055
G1 X27.198 Y53.825 E24.42883
G1 X27.198 Y49.52 E24.64361
G1 X22.754 Y49.52 E24.86532
G1 X22.337 Y49.48 E24.88622
G1 X21.935 Y49.362 E24.90712
G1 X21.563 Y49.169 E24.92803
G1 X21.198 Y48.876 E24.95138
G1 X21.081 Y48.759 E24.95963
G1 X20.815 Y48.435 E24.98055
G1 X20.614 Y48.068 E25.00142
G1 X20.487 Y47.668 E25.02236
G1 X20.437 Y47.203 E25.0457
G1 X20.437 Y42.361 E25.28726
G1 X20.477 Y41.944 E25.30816
G1 X20.606 Y41.515 E25.33051
G1 X20.636 Y41.443 E25.3344
G1 X20.834 Y41.073 E25.35534
G1 X21.111 Y40.733 E25.37722
G0 F3600 X21.394 Y41.016
G1 F1500 X42.333 Y20.077 E26.85458
G1 X42.628 Y19.839 E26.87349
G1 X42.914 Y19.688 E26.88963
G1 X42.986 Y19.658 E26.89352
G1 X43.349 Y19.55 E26.91241
G1 X43.678 Y19.52 E26.92889
G1 X48.52 Y19.52 E27.17046
G1 X48.897 Y19.56 E27.18938
G1 X49.257 Y19.678 E27.20828
G1 X49.584 Y19.868 E27.22714
G1 X49.793 Y20.047 E27.24087
G1 X49.91 Y20.164 E27.24913
G1 X50.148 Y20.459 E27.26804
G1 X50.319 Y20.797 E27.28694
G1 X50.416 Y21.163 E27.30583
G1 X50.437 Y21.437 E27.31954
G1 X50.437 Y26.142 E27.55427
G1 X55.281 Y26.142 E27.79594
G1 X55.658 Y26.182 E27.81485
G1 X56.018 Y26.3 E27.83375
G1 X56.345 Y26.49 E27.85262
G1 X56.554 Y26.669 E27.86635
G1 X56.671 Y26.786 E27.8746
G1 X56.909 Y27.081 E27.89352
G1 X57.08 Y27.419 E27.91241
G1 X57.177 Y27.785 E27.9313
G1 X57.198 Y28.059 E27.94501
G1 X57.198 Y32.805 E28.18179
G1 X61.716 Y32.805 E28.4072
G1 X62.093 Y32.845 E28.42611
G1 X62.453 Y32.963 E28.44501
G1 X62.78 Y33.153 E28.46388
G1 X62.989 Y33.332 E28.47761
G1 X63.106 Y33.449 E28.48586
G1 X63.344 Y33.744 E28.50477
G1 X63.515 Y34.082 E28.52367
G1 X63.612 Y34.448 E28.54256
G1 X63.633 Y34.722 E28.55627
G1 X63.633 Y39.257 E28.78252
G1 X68.071 Y39.257 E29.00394
G1 X68.448 Y39.297 E29.02285
G1 X68.808 Y39.415 E29.04175
G1 X69.135 Y39.605 E29.06062
G1 X69.344 Y39.784 E29.07435
G1 X69.461 Y39.901 E29.0826
G1 X69.699 Y40.196 E29.10151
G1 X69.87 Y40.534 E29.12041
G1 X69.967 Y40.9 E29.1393
G1 X69.988 Y41.174 E29.15301
G1 X69.988 Y45.94 E29.39079
G1 X69.948 Y46.317 E29.4097
G1 X69.83 Y46.677 E29.4286
G1 X69.64 Y47.004 E29.44747
G1 X69.461 Y47.213 E29.4612
G1 X69.344 Y47.33 E29.46945
G1 X69.049 Y47.568 E29.48836
G1 X68.711 Y47.739 E29.50726
G1 X68.345 Y47.836 E29.52615
G1 X68.071 Y47.857 E29.53986
G1 X63.933 Y47.857 E29.74631
G1 X48.988 Y62.802 E30.80076
G1 X48.988 Y66.94 E31.0072
G1 X48.948 Y67.317 E31.02612
G1 X48.83 Y67.677 E31.04502
G1 X48.64 Y68.004 E31.06389
G1 X48.461 Y68.213 E31.07762
G1 X48.344 Y68.33 E31.08587
G1 X48.049 Y68.568 E31.10478
G1 X47.711 Y68.739 E31.12368
G1 X47.345 Y68.836 E31.14257
G1 X47.071 Y68.857 E31.15628
G1 X42.305 Y68.857 E31.39406
G1 X41.928 Y68.817 E31.41297
G1 X41.568 Y68.699 E31.43187
G1 X41.241 Y68.509 E31.45074
G1 X41.032 Y68.33 E31.46447
G1 X40.915 Y68.213 E31.47272
G1 X40.677 Y67.918 E31.49163
G1 X40.506 Y67.58 E31.51053
G1 X40.409 Y67.214 E31.52942
G1 X40.388 Y66.94 E31.54313
G1 X40.388 Y62.405 E31.76938
G1 X35.95 Y62.405 E31.9908
G1 X35.573 Y62.365 E32.00971
G1 X35.213 Y62.247 E32.02861
G1 X34.886 Y62.057 E32.04748
G1 X34.677 Y61.878 E32.06121
G1 X34.56 Y61.761 E32.06946
G1 X34.322 Y61.466 E32.08837
G1 X34.151 Y61.128 E32.10727
G1 X34.054 Y60.762 E32.12616
G1 X34.033 Y60.488 E32.13987
G1 X34.033 Y55.742 E32.37665
G1 X29.515 Y55.742 E32.60205
G1 X29.138 Y55.702 E32.62097
G1 X28.778 Y55.584 E32.63987
G1 X28.451 Y55.394 E32.65874
G1 X28.242 Y55.215 E32.67247
G1 X28.125 Y55.098 E32.68072
G1 X27.887 Y54.803 E32.69963
G1 X27.716 Y54.465 E32.71853
G1 X27.619 Y54.099 E32.73742
G1 X27.598 Y53.825 E32.75113
G1 X27.598 Y49.114 E32.98616
G1 X27.52 Y49.12 E32.99007
G1 X22.754 Y49.12 E33.22784
G1 X22.377 Y49.08 E33.24676
G1 X22.017 Y48.962 E33.26566
G1 X21.69 Y48.772 E33.28452
G1 X21.481 Y48.593 E33.29825
G1 X21.364 Y48.476 E33.30651
G1 X21.126 Y48.181 E33.32542
G1 X20.955 Y47.843 E33.34432
G1 X20.858 Y47.477 E33.36321
G1 X20.837 Y47.203 E33.37692
G1 X20.837 Y42.361 E33.61849
G1 X20.877 Y41.984 E33.6374
G1 X20.975 Y41.669 E33.65386
G1 X21.005 Y41.597 E33.65775
G1 X21.187 Y41.264 E33.67668
G1 X21.394 Y41.016 E33.6928
G0 F3600 X21.677 Y41.299
G1 F1500 X42.616 Y20.36 E35.17016
G1 X42.879 Y20.154 E35.18682
G1 X43.068 Y20.058 E35.1974
G1 X43.14 Y20.028 E35.20129
G1 X43.461 Y19.937 E35.21794
G1 X43.678 Y19.92 E35.2288
G1 X48.52 Y19.92 E35.47037
G1 X48.852 Y19.96 E35.48705
G1 X49.164 Y20.077 E35.50367
G1 X49.51 Y20.33 E35.52506
G1 X49.627 Y20.447 E35.53331
G1 X49.833 Y20.71 E35.54998
G1 X49.972 Y21.014 E35.56666
G1 X50.037 Y21.437 E35.58801
G1 X50.037 Y26.203 E35.82578
G1 X49.997 Y26.535 E35.84247
G1 X49.96 Y26.633 E35.84769
G1 X50.222 Y26.559 E35.86128
G1 X50.439 Y26.542 E35.87214
G1 X55.281 Y26.542 E36.1137
G1 X55.613 Y26.582 E36.13039
G1 X55.925 Y26.699 E36.14701
G1 X56.271 Y26.952 E36.1684
G1 X56.388 Y27.069 E36.17665
G1 X56.594 Y27.332 E36.19332
G1 X56.733 Y27.636 E36.21
G1 X56.798 Y28.059 E36.23135
G1 X56.798 Y32.825 E36.46912
G1 X56.758 Y33.157 E36.48581
G1 X56.736 Y33.216 E36.48895
G1 X56.874 Y33.205 E36.49585
G1 X61.716 Y33.205 E36.73742
G1 X62.048 Y33.245 E36.75411
G1 X62.36 Y33.362 E36.77073
G1 X62.706 Y33.615 E36.79212
G1 X62.823 Y33.732 E36.80037
G1 X63.029 Y33.995 E36.81704
G1 X63.168 Y34.299 E36.83371
G1 X63.233 Y34.722 E36.85507
G1 X63.233 Y39.488 E37.09284
G1 X63.212 Y39.658 E37.10139
G1 X63.229 Y39.657 E37.10224
