;FLAVOR:Marlin
;TIME:12806
;Filament used: 6.21156m
;Layer height: 0.1
;MINX:24.5
;MINY:8
;MINZ:0.3
;MAXX:95.5
;MAXY:112
;MAXZ:26
;Generated with Cura_SteamEngine 4.4.0
M104 S200
M105
M109 S200
M82 ;absolute extrusion mode
G28 ;Home
G1 Z15.0 F6000 ;Move the platform down 15mm
;Prime the extruder
G92 E0
G1 F200 E3
G92 E0
G92 E0
G92 E0
G1 F1500 E-6.5
;LAYER_COUNT:258
;LAYER:0
M107
G0 F3600 X34.659 Y10.154 Z0.3
;TYPE:SKIRT
G1 F1500 E0
G1 X34.853 Y9.705 E0.0244
G1 X35.118 Y9.293 E0.04884
G1 X35.379 Y8.996 E0.06857
G1 X35.496 Y8.879 E0.07682
G1 X35.869 Y8.562 E0.10124
G1 X36.289 Y8.31 E0.12568
G1 X36.744 Y8.13 E0.15009
G1 X37.222 Y8.026 E0.1745
G1 X37.617 Y8 E0.19425
G1 X77.383 Y8 E2.17818
G1 X77.871 Y8.04 E2.20261
G1 X78.346 Y8.159 E2.22704
G1 X78.795 Y8.353 E2.25144
G1 X79.207 Y8.618 E2.27588
G1 X79.504 Y8.879 E2.29561
G1 X79.621 Y8.996 E2.30386
G1 X79.938 Y9.369 E2.32828
G1 X80.19 Y9.789 E2.35272
G1 X80.37 Y10.244 E2.37713
G1 X80.474 Y10.722 E2.40154
G1 X80.5 Y11.117 E2.42129
G1 X80.5 Y16.506 E2.69014
G1 X80.7 Y16.496 E2.70013
G1 X92.383 Y16.496 E3.283
G1 X92.871 Y16.536 E3.30743
G1 X93.346 Y16.655 E3.33186
G1 X93.795 Y16.849 E3.35626
G1 X94.207 Y17.114 E3.3807
G1 X94.504 Y17.375 E3.40043
G1 X94.621 Y17.492 E3.40868
G1 X94.938 Y17.865 E3.4331
G1 X95.19 Y18.285 E3.45754
G1 X95.37 Y18.74 E3.48195
G1 X95.474 Y19.218 E3.50636
G1 X95.5 Y19.613 E3.52611
G1 X95.5 Y20.305 E3.56063
G1 X95.46 Y20.793 E3.58506
G1 X95.341 Y21.268 E3.60949
G1 X95.147 Y21.717 E3.63389
G1 X94.993 Y21.957 E3.64812
G1 X95.19 Y22.285 E3.66721
G1 X95.37 Y22.74 E3.69162
G1 X95.474 Y23.218 E3.71602
G1 X95.5 Y23.613 E3.73577
G1 X95.5 Y32.379 E4.17311
G1 X95.46 Y32.867 E4.19754
G1 X95.341 Y33.342 E4.22197
G1 X95.147 Y33.791 E4.24637
G1 X94.882 Y34.203 E4.27081
G1 X94.621 Y34.5 E4.29054
G1 X94.504 Y34.617 E4.29879
G1 X94.131 Y34.934 E4.32321
G1 X93.711 Y35.186 E4.34765
G1 X93.256 Y35.366 E4.37206
G1 X92.778 Y35.47 E4.39647
G1 X92.383 Y35.496 E4.41622
G1 X80.5 Y35.496 E5.00906
G1 X80.5 Y93 E7.87795
G1 X84.24 Y93 E8.06454
G1 X84.728 Y93.04 E8.08897
G1 X85.203 Y93.159 E8.1134
G1 X85.652 Y93.353 E8.1378
G1 X86.064 Y93.618 E8.16224
G1 X86.361 Y93.879 E8.18196
G1 X86.478 Y93.996 E8.19022
G1 X86.795 Y94.369 E8.21464
G1 X87.047 Y94.789 E8.23908
G1 X87.227 Y95.244 E8.26349
G1 X87.331 Y95.722 E8.28789
G1 X87.349 Y96 E8.30179
G1 X87.383 Y96 E8.30349
G1 X87.871 Y96.04 E8.32792
G1 X88.346 Y96.159 E8.35235
G1 X88.795 Y96.353 E8.37675
G1 X89.207 Y96.618 E8.40119
G1 X89.504 Y96.879 E8.42091
G1 X89.621 Y96.996 E8.42917
G1 X89.938 Y97.369 E8.45359
G1 X90.19 Y97.789 E8.47803
G1 X90.37 Y98.244 E8.50244
G1 X90.474 Y98.722 E8.52684
G1 X90.5 Y99.117 E8.54659
G1 X90.5 Y108.883 E9.03382
G1 X90.46 Y109.371 E9.05825
G1 X90.341 Y109.846 E9.08268
G1 X90.147 Y110.295 E9.10708
G1 X89.882 Y110.707 E9.13152
G1 X89.621 Y111.004 E9.15125
G1 X89.504 Y111.121 E9.1595
G1 X89.131 Y111.438 E9.18392
G1 X88.711 Y111.69 E9.20836
G1 X88.256 Y111.87 E9.23277
G1 X87.778 Y111.974 E9.25718
G1 X87.383 Y112 E9.27693
G1 X27.617 Y112 E12.25866
G1 X27.129 Y111.96 E12.28309
G1 X26.654 Y111.841 E12.30752
G1 X26.205 Y111.647 E12.33192
G1 X25.793 Y111.382 E12.35636
G1 X25.496 Y111.121 E12.37609
G1 X25.379 Y111.004 E12.38435
G1 X25.062 Y110.631 E12.40877
G1 X24.81 Y110.211 E12.4332
G1 X24.63 Y109.756 E12.45761
G1 X24.526 Y109.278 E12.48202
G1 X24.5 Y108.883 E12.50177
G1 X24.5 Y99.117 E12.989
G1 X24.54 Y98.629 E13.01343
G1 X24.659 Y98.154 E13.03786
G1 X24.853 Y97.705 E13.06226
G1 X25.118 Y97.293 E13.0867
G1 X25.379 Y96.996 E13.10642
G1 X25.496 Y96.879 E13.11468
G1 X25.869 Y96.562 E13.1391
G1 X26.289 Y96.31 E13.16354
G1 X26.744 Y96.13 E13.18795
G1 X27.222 Y96.026 E13.21235
G1 X27.617 Y96 E13.2321
G1 X27.652 Y96 E13.23385
G1 X27.682 Y95.629 E13.25242
G1 X27.801 Y95.154 E13.27685
G1 X27.995 Y94.705 E13.30125
G1 X28.26 Y94.293 E13.32569
G1 X28.521 Y93.996 E13.34542
G1 X28.638 Y93.879 E13.35367
G1 X29.011 Y93.562 E13.37809
G1 X29.431 Y93.31 E13.40253
G1 X29.886 Y93.13 E13.42694
G1 X30.364 Y93.026 E13.45135
G1 X30.759 Y93 E13.4711
G1 X34.5 Y93 E13.65774
G1 X34.5 Y11.117 E17.74289
G1 X34.54 Y10.629 E17.76732
G1 X34.659 Y10.154 E17.79175
G0 F3600 X35.058 Y10.223
G1 F1500 X35.252 Y9.811 E17.81447
G1 X35.662 Y9.279 E17.84798
G1 X35.779 Y9.162 E17.85624
G1 X36.128 Y8.869 E17.87897
G1 X36.523 Y8.642 E17.9017
G1 X36.951 Y8.487 E17.92441
G1 X37.617 Y8.4 E17.95792
G1 X77.383 Y8.4 E19.94185
G1 X77.837 Y8.44 E19.96459
G1 X78.277 Y8.558 E19.98732
G1 X78.689 Y8.752 E20.01004
G1 X79.221 Y9.162 E20.04355
G1 X79.338 Y9.279 E20.0518
G1 X79.631 Y9.628 E20.07454
G1 X79.858 Y10.023 E20.09726
G1 X80.013 Y10.451 E20.11998
G1 X80.1 Y11.117 E20.15348
G1 X80.1 Y16.976 E20.44579
G1 X80.268 Y16.932 E20.45446
G1 X80.7 Y16.896 E20.47608
G1 X92.383 Y16.896 E21.05895
G1 X92.837 Y16.936 E21.08169
G1 X93.277 Y17.054 E21.10442
G1 X93.689 Y17.248 E21.12713
G1 X94.221 Y17.658 E21.16064
G1 X94.338 Y17.775 E21.1689
G1 X94.631 Y18.124 E21.19163
G1 X94.858 Y18.519 E21.21436
G1 X95.013 Y18.947 E21.23707
G1 X95.1 Y19.613 E21.27058
G1 X95.1 Y20.305 E21.30511
G1 X95.06 Y20.759 E21.32784
G1 X94.942 Y21.199 E21.35057
G1 X94.748 Y21.611 E21.37329
G1 X94.498 Y21.966 E21.39495
G1 X94.631 Y22.124 E21.40526
G1 X94.858 Y22.519 E21.42798
G1 X95.013 Y22.947 E21.45069
G1 X95.1 Y23.613 E21.4842
G1 X95.1 Y32.379 E21.92154
G1 X95.06 Y32.833 E21.94428
G1 X94.942 Y33.273 E21.96701
G1 X94.748 Y33.685 E21.98973
G1 X94.338 Y34.217 E22.02324
G1 X94.221 Y34.334 E22.03149
G1 X93.872 Y34.627 E22.05422
G1 X93.477 Y34.854 E22.07695
G1 X93.049 Y35.009 E22.09966
G1 X92.383 Y35.096 E22.13317
G1 X80.1 Y35.096 E22.74597
G1 X80.1 Y93.4 E25.65477
G1 X84.24 Y93.4 E25.86132
G1 X84.694 Y93.44 E25.88406
G1 X85.134 Y93.558 E25.90678
G1 X85.546 Y93.752 E25.9295
G1 X86.078 Y94.162 E25.96301
G1 X86.195 Y94.279 E25.97127
G1 X86.488 Y94.628 E25.994
G1 X86.715 Y95.023 E26.01673
G1 X86.87 Y95.451 E26.03944
G1 X86.957 Y96.119 E26.07305
G1 X86.957 Y96.4 E26.08707
G1 X87.383 Y96.4 E26.10832
G1 X87.837 Y96.44 E26.13106
G1 X88.277 Y96.558 E26.15379
G1 X88.689 Y96.752 E26.17651
G1 X89.221 Y97.162 E26.21001
G1 X89.338 Y97.279 E26.21827
G1 X89.631 Y97.628 E26.241
G1 X89.858 Y98.023 E26.26373
G1 X90.013 Y98.451 E26.28644
G1 X90.1 Y99.117 E26.31995
G1 X90.1 Y108.883 E26.80718
G1 X90.06 Y109.337 E26.82992
G1 X89.942 Y109.777 E26.85265
G1 X89.748 Y110.189 E26.87537
G1 X89.338 Y110.721 E26.90887
G1 X89.221 Y110.838 E26.91713
G1 X88.872 Y111.131 E26.93986
G1 X88.477 Y111.358 E26.96259
G1 X88.049 Y111.513 E26.9853
G1 X87.383 Y111.6 E27.01881
G1 X27.617 Y111.6 E30.00055
G1 X27.163 Y111.56 E30.02329
G1 X26.723 Y111.442 E30.04601
G1 X26.311 Y111.248 E30.06873
G1 X25.779 Y110.838 E30.10224
G1 X25.662 Y110.721 E30.1105
G1 X25.369 Y110.372 E30.13323
G1 X25.142 Y109.977 E30.15596
G1 X24.987 Y109.549 E30.17867
G1 X24.9 Y108.883 E30.21218
G1 X24.9 Y99.117 E30.69941
G1 X24.94 Y98.663 E30.72215
G1 X25.058 Y98.223 E30.74487
G1 X25.252 Y97.811 E30.76759
G1 X25.662 Y97.279 E30.8011
G1 X25.779 Y97.162 E30.80936
G1 X26.128 Y96.869 E30.83209
G1 X26.523 Y96.642 E30.85482
G1 X26.951 Y96.487 E30.87753
G1 X27.617 Y96.4 E30.91104
G1 X28.042 Y96.4 E30.93224
G1 X28.042 Y96.117 E30.94636
G1 X28.082 Y95.663 E30.9691
G1 X28.2 Y95.223 E30.99183
G1 X28.394 Y94.811 E31.01455
G1 X28.804 Y94.279 E31.04806
G1 X28.921 Y94.162 E31.05631
G1 X29.27 Y93.869 E31.07905
G1 X29.665 Y93.642 E31.10177
G1 X30.093 Y93.487 E31.12448
G1 X30.759 Y93.4 E31.15799
G1 X34.9 Y93.4 E31.36459
G1 X34.9 Y11.117 E35.4697
G1 X34.94 Y10.663 E35.49244
G1 X35.058 Y10.223 E35.51517
G0 F3600 X35.458 Y10.298
G1 F1500 X35.651 Y9.926 E35.53608
G1 X35.944 Y9.561 E35.55943
G1 X36.061 Y9.444 E35.56768
G1 X36.385 Y9.178 E35.5886
G1 X36.752 Y8.977 E35.60947
G1 X37.152 Y8.85 E35.63041
G1 X37.617 Y8.8 E35.65375
G1 X77.383 Y8.8 E37.63768
G1 X77.8 Y8.84 E37.65858
G1 X78.202 Y8.958 E37.67948
G1 X78.574 Y9.151 E37.70039
G1 X78.939 Y9.444 E37.72374
G1 X79.056 Y9.561 E37.732
G1 X79.322 Y9.885 E37.75291
G1 X79.523 Y10.252 E37.77379
G1 X79.65 Y10.652 E37.79472
G1 X79.7 Y11.117 E37.81806
G1 X79.7 Y17.545 E38.13875
G1 X79.79 Y17.493 E38.14394
G1 X80.187 Y17.357 E38.16487
G1 X80.7 Y17.296 E38.19065
G1 X92.383 Y17.296 E38.77351
G1 X92.8 Y17.336 E38.79441
G1 X93.202 Y17.454 E38.81532
G1 X93.574 Y17.647 E38.83622
G1 X93.939 Y17.94 E38.85957
G1 X94.056 Y18.057 E38.86783
G1 X94.322 Y18.381 E38.88874
G1 X94.523 Y18.748 E38.90962
G1 X94.65 Y19.148 E38.93056
G1 X94.7 Y19.613 E38.95389
G1 X94.7 Y20.305 E38.98841
G1 X94.66 Y20.722 E39.00931
G1 X94.542 Y21.124 E39.03022
G1 X94.349 Y21.496 E39.05112
G1 X94.09 Y21.825 E39.07201
G1 X93.947 Y21.948 E39.08142
G1 X94.056 Y22.057 E39.08912
G1 X94.322 Y22.381 E39.11003
G1 X94.523 Y22.748 E39.13091
G1 X94.65 Y23.148 E39.15184
G1 X94.7 Y23.613 E39.17518
G1 X94.7 Y32.379 E39.61251
G1 X94.66 Y32.796 E39.63341
G1 X94.542 Y33.198 E39.65431
G1 X94.349 Y33.57 E39.67522
G1 X94.056 Y33.935 E39.69857
G1 X93.939 Y34.052 E39.70683
G1 X93.615 Y34.318 E39.72774
G1 X93.248 Y34.519 E39.74862
G1 X92.848 Y34.646 E39.76956
G1 X92.383 Y34.696 E39.79289
G1 X79.7 Y34.696 E40.42565
G1 X79.7 Y93.8 E43.37436
G1 X84.24 Y93.8 E43.60086
G1 X84.657 Y93.84 E43.62176
G1 X85.059 Y93.958 E43.64266
G1 X85.431 Y94.151 E43.66357
G1 X85.796 Y94.444 E43.68692
G1 X85.913 Y94.561 E43.69518
G1 X86.179 Y94.885 E43.71609
G1 X86.38 Y95.252 E43.73697
G1 X86.507 Y95.652 E43.7579
G1 X86.557 Y96.119 E43.78134
G1 X86.557 Y96.8 E43.81531
G1 X87.383 Y96.8 E43.85652
G1 X87.8 Y96.84 E43.87742
G1 X88.202 Y96.958 E43.89832
G1 X88.574 Y97.151 E43.91923
G1 X88.939 Y97.444 E43.94258
G1 X89.056 Y97.561 E43.95084
G1 X89.322 Y97.885 E43.97175
G1 X89.523 Y98.252 E43.99263
G1 X89.65 Y98.652 E44.01356
G1 X89.7 Y99.117 E44.0369
G1 X89.7 Y108.883 E44.52412
G1 X89.66 Y109.3 E44.54502
G1 X89.542 Y109.702 E44.56593
G1 X89.349 Y110.074 E44.58683
G1 X89.056 Y110.439 E44.61019
G1 X88.939 Y110.556 E44.61844
G1 X88.615 Y110.822 E44.63936
G1 X88.248 Y111.023 E44.66023
G1 X87.848 Y111.15 E44.68117
G1 X87.383 Y111.2 E44.7045
G1 X27.617 Y111.2 E47.68624
G1 X27.2 Y111.16 E47.70714
G1 X26.798 Y111.042 E47.72804
G1 X26.426 Y110.849 E47.74895
G1 X26.061 Y110.556 E47.7723
G1 X25.944 Y110.439 E47.78056
G1 X25.678 Y110.115 E47.80147
G1 X25.477 Y109.748 E47.82235
G1 X25.35 Y109.348 E47.84328
G1 X25.3 Y108.883 E47.86662
G1 X25.3 Y99.117 E48.35384
G1 X25.34 Y98.7 E48.37474
G1 X25.458 Y98.298 E48.39565
G1 X25.651 Y97.926 E48.41655
G1 X25.944 Y97.561 E48.43991
G1 X26.061 Y97.444 E48.44816
G1 X26.385 Y97.178 E48.46907
G1 X26.752 Y96.977 E48.48995
G1 X27.152 Y96.85 E48.51089
G1 X27.617 Y96.8 E48.53422
G1 X28.442 Y96.8 E48.57538
G1 X28.442 Y96.117 E48.60946
G1 X28.482 Y95.7 E48.63035
G1 X28.6 Y95.298 E48.65126
G1 X28.793 Y94.926 E48.67217
G1 X29.086 Y94.561 E48.69552
G1 X29.203 Y94.444 E48.70377
G1 X29.527 Y94.178 E48.72469
G1 X29.894 Y93.977 E48.74556
G1 X30.294 Y93.85 E48.7665
G1 X30.759 Y93.8 E48.78983
G1 X35.3 Y93.8 E49.01638
G1 X35.3 Y11.117 E53.14145
G1 X35.34 Y10.7 E53.16235
G1 X35.458 Y10.298 E53.18326
G0 F3600 X35.858 Y10.38
G1 F1500 X36.048 Y10.053 E53.20212
G1 X36.227 Y9.844 E53.21585
G1 X36.344 Y9.727 E53.22411
G1 X36.639 Y9.489 E53.24302
G1 X36.977 Y9.318 E53.26192
G1 X37.343 Y9.221 E53.28081
G1 X37.617 Y9.2 E53.29452
G1 X77.383 Y9.2 E55.27845
G1 X77.76 Y9.24 E55.29736
G1 X78.12 Y9.358 E55.31627
G1 X78.447 Y9.548 E55.33513
G1 X78.656 Y9.727 E55.34886
G1 X78.773 Y9.844 E55.35712
G1 X79.011 Y10.139 E55.37603
G1 X79.182 Y10.477 E55.39493
G1 X79.279 Y10.843 E55.41382
G1 X79.3 Y11.117 E55.42753
G1 X79.3 Y18.375 E55.78963
G1 X79.503 Y18.151 E55.80471
G1 X79.812 Y17.931 E55.82363
G1 X80.159 Y17.779 E55.84253
G1 X80.7 Y17.696 E55.86984
G1 X92.383 Y17.696 E56.45271
G1 X92.76 Y17.736 E56.47162
G1 X93.12 Y17.854 E56.49052
G1 X93.447 Y18.044 E56.50939
G1 X93.656 Y18.223 E56.52312
G1 X93.773 Y18.34 E56.53137
G1 X94.011 Y18.635 E56.55029
G1 X94.182 Y18.973 E56.56918
G1 X94.279 Y19.339 E56.58807
G1 X94.3 Y19.613 E56.60178
G1 X94.3 Y20.305 E56.63631
G1 X94.26 Y20.682 E56.65522
G1 X94.142 Y21.042 E56.67412
G1 X93.952 Y21.369 E56.69299
G1 X93.697 Y21.65 E56.71192
G1 X93.388 Y21.87 E56.73085
G1 X93.251 Y21.93 E56.73831
G1 X93.447 Y22.044 E56.74962
G1 X93.656 Y22.223 E56.76335
G1 X93.773 Y22.34 E56.7716
G1 X94.011 Y22.635 E56.79051
G1 X94.182 Y22.973 E56.80941
G1 X94.279 Y23.339 E56.8283
G1 X94.3 Y23.613 E56.84201
G1 X94.3 Y32.379 E57.27935
G1 X94.26 Y32.756 E57.29826
G1 X94.142 Y33.116 E57.31716
G1 X93.952 Y33.443 E57.33603
G1 X93.773 Y33.652 E57.34976
G1 X93.656 Y33.769 E57.35802
G1 X93.361 Y34.007 E57.37693
G1 X93.023 Y34.178 E57.39582
G1 X92.657 Y34.275 E57.41471
G1 X92.383 Y34.296 E57.42842
G1 X79.3 Y34.296 E58.08114
G1 X79.3 Y94.2 E61.06976
G1 X84.24 Y94.2 E61.31622
G1 X84.617 Y94.24 E61.33513
G1 X84.977 Y94.358 E61.35403
G1 X85.304 Y94.548 E61.3729
G1 X85.513 Y94.727 E61.38663
G1 X85.63 Y94.844 E61.39488
G1 X85.868 Y95.139 E61.41379
G1 X86.039 Y95.477 E61.43269
G1 X86.136 Y95.843 E61.45158
G1 X86.157 Y96.118 E61.46534
G1 X86.156 Y97.2 E61.51932
G1 X87.383 Y97.2 E61.58054
G1 X87.76 Y97.24 E61.59945
G1 X88.12 Y97.358 E61.61835
G1 X88.447 Y97.548 E61.63722
G1 X88.656 Y97.727 E61.65095
G1 X88.773 Y97.844 E61.65921
G1 X89.011 Y98.139 E61.67812
G1 X89.182 Y98.477 E61.69701
G1 X89.279 Y98.843 E61.7159
G1 X89.3 Y99.117 E61.72961
G1 X89.3 Y108.883 E62.21684
G1 X89.26 Y109.26 E62.23576
G1 X89.142 Y109.62 E62.25466
G1 X88.952 Y109.947 E62.27353
G1 X88.773 Y110.156 E62.28725
G1 X88.656 Y110.273 E62.29551
G1 X88.361 Y110.511 E62.31442
G1 X88.023 Y110.682 E62.33332
G1 X87.657 Y110.779 E62.35221
G1 X87.383 Y110.8 E62.36592
G1 X27.617 Y110.8 E65.34766
G1 X27.24 Y110.76 E65.36657
G1 X26.88 Y110.642 E65.38547
G1 X26.553 Y110.452 E65.40434
G1 X26.344 Y110.273 E65.41807
G1 X26.227 Y110.156 E65.42632
G1 X25.989 Y109.861 E65.44523
G1 X25.818 Y109.523 E65.46413
G1 X25.721 Y109.157 E65.48302
G1 X25.7 Y108.883 E65.49673
G1 X25.7 Y99.117 E65.98396
G1 X25.74 Y98.74 E66.00287
G1 X25.858 Y98.38 E66.02177
G1 X26.048 Y98.053 E66.04064
G1 X26.227 Y97.844 E66.05437
G1 X26.344 Y97.727 E66.06262
G1 X26.639 Y97.489 E66.08153
G1 X26.977 Y97.318 E66.10043
G1 X27.343 Y97.221 E66.11932
G1 X27.617 Y97.2 E66.13303
G1 X28.842 Y97.2 E66.19415
G1 X28.842 Y96.117 E66.24818
G1 X28.882 Y95.74 E66.26709
G1 X29 Y95.38 E66.28599
G1 X29.19 Y95.053 E66.30486
G1 X29.369 Y94.844 E66.31859
G1 X29.486 Y94.727 E66.32685
G1 X29.781 Y94.489 E66.34576
G1 X30.119 Y94.318 E66.36465
G1 X30.485 Y94.221 E66.38354
G1 X30.759 Y94.2 E66.39725
G1 X35.7 Y94.2 E66.64376
G1 X35.7 Y11.117 E70.78879
G1 X35.74 Y10.74 E70.8077
G1 X35.858 Y10.38 E70.8266
G0 F3600 X36.14 Y10.785
G1 F1500 X36.257 Y10.473 E70.84323
G1 X36.51 Y10.127 E70.86461
G1 X36.627 Y10.01 E70.87287
G1 X36.89 Y9.804 E70.88954
G1 X37.194 Y9.665 E70.90621
G1 X37.617 Y9.6 E70.92756
G1 X77.383 Y9.6 E72.9115
G1 X77.715 Y9.64 E72.92818
G1 X78.027 Y9.757 E72.9448
G1 X78.373 Y10.01 E72.96619
G1 X78.49 Y10.127 E72.97444
G1 X78.696 Y10.39 E72.99111
G1 X78.835 Y10.694 E73.00779
G1 X78.9 Y11.117 E73.02914
G1 X78.9 Y22.096 E73.57688
G1 X92.383 Y22.096 E74.24955
G1 X92.715 Y22.136 E74.26624
G1 X93.027 Y22.253 E74.28286
G1 X93.373 Y22.506 E74.30425
G1 X93.49 Y22.623 E74.3125
G1 X93.696 Y22.886 E74.32917
G1 X93.835 Y23.19 E74.34584
G1 X93.9 Y23.613 E74.3672
G1 X93.9 Y32.379 E74.80453
G1 X93.86 Y32.711 E74.82122
G1 X93.743 Y33.023 E74.83784
G1 X93.49 Y33.369 E74.85923
G1 X93.373 Y33.486 E74.86748
G1 X93.11 Y33.692 E74.88415
G1 X92.806 Y33.831 E74.90082
G1 X92.383 Y33.896 E74.92218
G1 X78.9 Y33.896 E75.59485
G1 X78.9 Y94.6 E78.62338
G1 X84.24 Y94.6 E78.88979
G1 X84.572 Y94.64 E78.90648
G1 X84.884 Y94.757 E78.9231
G1 X85.23 Y95.01 E78.94449
G1 X85.347 Y95.127 E78.95274
G1 X85.553 Y95.39 E78.96941
G1 X85.692 Y95.694 E78.98608
G1 X85.757 Y96.118 E79.00749
G1 X85.756 Y97.6 E79.08142
G1 X87.383 Y97.6 E79.16259
G1 X87.715 Y97.64 E79.17928
G1 X88.027 Y97.757 E79.1959
G1 X88.373 Y98.01 E79.21729
G1 X88.49 Y98.127 E79.22554
G1 X88.696 Y98.39 E79.24221
G1 X88.835 Y98.694 E79.25888
G1 X88.9 Y99.117 E79.28024
G1 X88.9 Y108.883 E79.76746
G1 X88.86 Y109.215 E79.78415
G1 X88.743 Y109.527 E79.80077
G1 X88.49 Y109.873 E79.82216
G1 X88.373 Y109.99 E79.83041
G1 X88.11 Y110.196 E79.84708
