;FLAVOR:Marlin
;TIME:857
;Filament used: 0.424121m
;Layer height: 0.1
;MINX:49.051
;MINY:52
;MINZ:0.3
;MAXX:70.5
;MAXY:80.807
;MAXZ:5
;Generated with Cura_SteamEngine 4.4.0
M104 S200
M105
M109 S200
M82 ;absolute extrusion mode
G28 ;Home
G1 Z15.0 F6000 ;Move the platform down 15mm
;Prime the extruder
G92 E0
G1 F200 E3
G92 E0
G92 E0
G92 E0
G1 F1500 E-6.5
;LAYER_COUNT:48
;LAYER:0
M107
G0 F3600 X50.496 Y52.879 Z0.3
;TYPE:SKIRT
G1 F1500 E0
G1 X50.869 Y52.562 E0.02442
G1 X51.289 Y52.31 E0.04886
G1 X51.744 Y52.13 E0.07327
G1 X52.222 Y52.026 E0.09768
G1 X52.617 Y52 E0.11742
G1 X67.383 Y52 E0.8541
G1 X67.871 Y52.04 E0.87853
G1 X68.346 Y52.159 E0.90296
G1 X68.795 Y52.353 E0.92736
G1 X69.207 Y52.618 E0.9518
G1 X69.504 Y52.879 E0.97153
G1 X69.621 Y52.996 E0.97978
G1 X69.938 Y53.369 E1.00421
G1 X70.19 Y53.789 E1.02864
G1 X70.37 Y54.244 E1.05305
G1 X70.474 Y54.722 E1.07746
G1 X70.5 Y55.117 E1.09721
G1 X70.5 Y64.883 E1.58444
G1 X70.46 Y65.371 E1.60886
G1 X70.341 Y65.846 E1.63329
G1 X70.147 Y66.295 E1.6577
G1 X69.882 Y66.707 E1.68214
G1 X69.815 Y66.783 E1.68719
G1 X69.921 Y67.051 E1.70157
G1 X70.025 Y67.529 E1.72597
G1 X70.051 Y67.924 E1.74572
G1 X70.051 Y77.69 E2.23295
G1 X70.011 Y78.178 E2.25738
G1 X69.892 Y78.653 E2.28181
G1 X69.698 Y79.102 E2.30621
G1 X69.433 Y79.514 E2.33065
G1 X69.172 Y79.811 E2.35038
G1 X69.055 Y79.928 E2.35863
G1 X68.682 Y80.245 E2.38305
G1 X68.262 Y80.497 E2.40749
G1 X67.807 Y80.677 E2.4319
G1 X67.329 Y80.781 E2.45631
G1 X66.934 Y80.807 E2.47606
G1 X52.168 Y80.807 E3.21274
G1 X51.68 Y80.767 E3.23716
G1 X51.205 Y80.648 E3.26159
G1 X50.756 Y80.454 E3.286
G1 X50.344 Y80.189 E3.31044
G1 X50.047 Y79.928 E3.33016
G1 X49.93 Y79.811 E3.33842
G1 X49.613 Y79.438 E3.36284
G1 X49.361 Y79.018 E3.38727
G1 X49.181 Y78.563 E3.41169
G1 X49.077 Y78.085 E3.43609
G1 X49.051 Y77.69 E3.45584
G1 X49.051 Y67.924 E3.94307
G1 X49.091 Y67.436 E3.9675
G1 X49.21 Y66.961 E3.99193
G1 X49.404 Y66.512 E4.01633
G1 X49.669 Y66.1 E4.04077
G1 X49.736 Y66.024 E4.04582
G1 X49.63 Y65.756 E4.0602
G1 X49.526 Y65.278 E4.08461
G1 X49.5 Y64.883 E4.10436
G1 X49.5 Y55.117 E4.59158
G1 X49.54 Y54.629 E4.61601
G1 X49.659 Y54.154 E4.64044
G1 X49.853 Y53.705 E4.66484
G1 X50.118 Y53.293 E4.68928
G1 X50.379 Y52.996 E4.70901
G1 X50.496 Y52.879 E4.71727
G0 F3600 X50.779 Y53.162
G1 F1500 X51.128 Y52.869 E4.74
G1 X51.523 Y52.642 E4.76273
G1 X51.951 Y52.487 E4.78544
G1 X52.617 Y52.4 E4.81895
G1 X67.383 Y52.4 E5.55563
G1 X67.837 Y52.44 E5.57836
G1 X68.277 Y52.558 E5.60109
G1 X68.689 Y52.752 E5.62381
G1 X69.221 Y53.162 E5.65732
G1 X69.338 Y53.279 E5.66558
G1 X69.631 Y53.628 E5.68831
G1 X69.858 Y54.023 E5.71104
G1 X70.013 Y54.451 E5.73375
G1 X70.1 Y55.117 E5.76726
G1 X70.1 Y64.883 E6.25449
G1 X70.06 Y65.337 E6.27722
G1 X69.942 Y65.777 E6.29995
G1 X69.748 Y66.189 E6.32267
G1 X69.343 Y66.715 E6.35579
G1 X69.409 Y66.83 E6.36241
G1 X69.564 Y67.258 E6.38512
G1 X69.651 Y67.924 E6.41862
G1 X69.651 Y77.69 E6.90585
G1 X69.611 Y78.144 E6.92859
G1 X69.493 Y78.584 E6.95132
G1 X69.299 Y78.996 E6.97404
G1 X68.889 Y79.528 E7.00755
G1 X68.772 Y79.645 E7.0158
G1 X68.423 Y79.938 E7.03854
G1 X68.028 Y80.165 E7.06126
G1 X67.6 Y80.32 E7.08397
G1 X66.934 Y80.407 E7.11748
G1 X52.168 Y80.407 E7.85416
G1 X51.714 Y80.367 E7.8769
G1 X51.274 Y80.249 E7.89963
G1 X50.862 Y80.055 E7.92235
G1 X50.33 Y79.645 E7.95586
G1 X50.213 Y79.528 E7.96411
G1 X49.92 Y79.179 E7.98685
G1 X49.693 Y78.784 E8.00957
G1 X49.538 Y78.356 E8.03229
G1 X49.451 Y77.69 E8.06579
G1 X49.451 Y67.924 E8.55302
G1 X49.491 Y67.47 E8.57576
G1 X49.609 Y67.03 E8.59849
G1 X49.803 Y66.618 E8.62121
G1 X50.208 Y66.092 E8.65433
G1 X50.142 Y65.977 E8.66094
G1 X49.987 Y65.549 E8.68365
G1 X49.9 Y64.883 E8.71716
G1 X49.9 Y55.117 E9.20439
G1 X49.94 Y54.663 E9.22713
G1 X50.058 Y54.223 E9.24985
G1 X50.252 Y53.811 E9.27257
G1 X50.662 Y53.279 E9.30608
G1 X50.779 Y53.162 E9.31434
G0 F3600 X51.061 Y53.444
G1 F1500 X51.385 Y53.178 E9.33525
G1 X51.752 Y52.977 E9.35613
G1 X52.152 Y52.85 E9.37707
G1 X52.617 Y52.8 E9.4004
G1 X67.383 Y52.8 E10.13708
G1 X67.8 Y52.84 E10.15798
G1 X68.202 Y52.958 E10.17888
G1 X68.574 Y53.151 E10.19979
G1 X68.939 Y53.444 E10.22314
G1 X69.056 Y53.561 E10.23139
G1 X69.322 Y53.885 E10.25231
G1 X69.523 Y54.252 E10.27318
G1 X69.65 Y54.652 E10.29412
G1 X69.7 Y55.117 E10.31745
G1 X69.7 Y64.883 E10.80468
G1 X69.66 Y65.3 E10.82558
G1 X69.542 Y65.702 E10.84648
G1 X69.349 Y66.074 E10.86739
G1 X69.056 Y66.439 E10.89074
G1 X68.939 Y66.556 E10.899
G1 X68.833 Y66.643 E10.90584
G1 X68.873 Y66.692 E10.90899
G1 X69.074 Y67.059 E10.92987
G1 X69.201 Y67.459 E10.95081
G1 X69.251 Y67.924 E10.97414
G1 X69.251 Y77.69 E11.46137
G1 X69.211 Y78.107 E11.48227
G1 X69.093 Y78.509 E11.50317
G1 X68.9 Y78.881 E11.52408
G1 X68.607 Y79.246 E11.54743
G1 X68.49 Y79.363 E11.55569
G1 X68.166 Y79.629 E11.5766
G1 X67.799 Y79.83 E11.59748
G1 X67.399 Y79.957 E11.61841
G1 X66.934 Y80.007 E11.64175
G1 X52.168 Y80.007 E12.37842
G1 X51.751 Y79.967 E12.39932
G1 X51.349 Y79.849 E12.42023
G1 X50.977 Y79.656 E12.44113
G1 X50.612 Y79.363 E12.46449
G1 X50.495 Y79.246 E12.47274
G1 X50.229 Y78.922 E12.49365
G1 X50.028 Y78.555 E12.51453
G1 X49.901 Y78.155 E12.53547
G1 X49.851 Y77.69 E12.5588
G1 X49.851 Y67.924 E13.04603
G1 X49.891 Y67.507 E13.06693
G1 X50.009 Y67.105 E13.08783
G1 X50.202 Y66.733 E13.10874
G1 X50.495 Y66.368 E13.13209
G1 X50.612 Y66.251 E13.14035
G1 X50.718 Y66.164 E13.14719
G1 X50.678 Y66.115 E13.15034
G1 X50.477 Y65.748 E13.17122
G1 X50.35 Y65.348 E13.19216
G1 X50.3 Y64.883 E13.21549
G1 X50.3 Y55.117 E13.70272
G1 X50.34 Y54.7 E13.72362
G1 X50.458 Y54.298 E13.74452
G1 X50.651 Y53.926 E13.76543
G1 X50.944 Y53.561 E13.78878
G1 X51.061 Y53.444 E13.79703
G0 F3600 X51.344 Y53.727
G1 F1500 X51.639 Y53.489 E13.81594
G1 X51.977 Y53.318 E13.83484
G1 X52.343 Y53.221 E13.85373
G1 X52.617 Y53.2 E13.86744
G1 X67.383 Y53.2 E14.60412
G1 X67.76 Y53.24 E14.62303
G1 X68.12 Y53.358 E14.64194
G1 X68.447 Y53.548 E14.6608
G1 X68.656 Y53.727 E14.67453
G1 X68.773 Y53.844 E14.68279
G1 X69.011 Y54.139 E14.7017
G1 X69.182 Y54.477 E14.7206
G1 X69.279 Y54.843 E14.73949
G1 X69.3 Y55.117 E14.7532
G1 X69.3 Y64.883 E15.24042
G1 X69.26 Y65.26 E15.25934
G1 X69.142 Y65.62 E15.27824
G1 X68.952 Y65.947 E15.29711
G1 X68.773 Y66.156 E15.31083
G1 X68.656 Y66.273 E15.31909
G1 X68.361 Y66.511 E15.338
G1 X68.243 Y66.57 E15.34458
G1 X68.324 Y66.651 E15.3503
G1 X68.562 Y66.946 E15.36921
G1 X68.733 Y67.284 E15.38811
G1 X68.83 Y67.65 E15.407
G1 X68.851 Y67.924 E15.42071
G1 X68.851 Y77.69 E15.90793
G1 X68.811 Y78.067 E15.92685
G1 X68.693 Y78.427 E15.94575
G1 X68.503 Y78.754 E15.96462
G1 X68.324 Y78.963 E15.97834
G1 X68.207 Y79.08 E15.9866
G1 X67.912 Y79.318 E16.00551
G1 X67.574 Y79.489 E16.02441
G1 X67.208 Y79.586 E16.0433
G1 X66.934 Y79.607 E16.05701
G1 X52.168 Y79.607 E16.79369
G1 X51.791 Y79.567 E16.8126
G1 X51.431 Y79.449 E16.8315
G1 X51.104 Y79.259 E16.85037
G1 X50.895 Y79.08 E16.8641
G1 X50.778 Y78.963 E16.87235
G1 X50.54 Y78.668 E16.89126
G1 X50.369 Y78.33 E16.91016
G1 X50.272 Y77.964 E16.92905
G1 X50.251 Y77.69 E16.94276
G1 X50.251 Y67.924 E17.42999
G1 X50.291 Y67.547 E17.4489
G1 X50.409 Y67.187 E17.4678
G1 X50.599 Y66.86 E17.48667
G1 X50.778 Y66.651 E17.5004
G1 X50.895 Y66.534 E17.50866
G1 X51.19 Y66.296 E17.52757
G1 X51.308 Y66.237 E17.53415
G1 X51.227 Y66.156 E17.53986
G1 X50.989 Y65.861 E17.55877
G1 X50.818 Y65.523 E17.57767
G1 X50.721 Y65.157 E17.59656
G1 X50.7 Y64.883 E17.61027
G1 X50.7 Y55.117 E18.0975
G1 X50.74 Y54.74 E18.11641
G1 X50.858 Y54.38 E18.13531
G1 X51.048 Y54.053 E18.15418
G1 X51.227 Y53.844 E18.16791
G1 X51.344 Y53.727 E18.17617
G0 F3600 X51.627 Y54.01
G1 F1500 X51.89 Y53.804 E18.19283
G1 X52.194 Y53.665 E18.20951
G1 X52.617 Y53.6 E18.23086
G1 X67.383 Y53.6 E18.96754
G1 X67.715 Y53.64 E18.98422
G1 X68.027 Y53.757 E19.00085
G1 X68.373 Y54.01 E19.02223
G1 X68.49 Y54.127 E19.03049
G1 X68.696 Y54.39 E19.04715
G1 X68.835 Y54.694 E19.06383
G1 X68.9 Y55.117 E19.08518
G1 X68.9 Y64.883 E19.57241
G1 X68.86 Y65.215 E19.58909
G1 X68.743 Y65.527 E19.60572
G1 X68.49 Y65.873 E19.6271
G1 X68.373 Y65.99 E19.63536
G1 X68.11 Y66.196 E19.65202
G1 X67.806 Y66.335 E19.6687
G1 X67.383 Y66.4 E19.69005
G1 X52.617 Y66.4 E20.42673
G1 X52.285 Y66.36 E20.44341
G1 X51.973 Y66.243 E20.46004
G1 X51.627 Y65.99 E20.48142
G1 X51.51 Y65.873 E20.48968
G1 X51.304 Y65.61 E20.50634
G1 X51.165 Y65.306 E20.52302
G1 X51.1 Y64.883 E20.54437
G1 X51.1 Y55.117 E21.0316
G1 X51.14 Y54.785 E21.04828
G1 X51.257 Y54.473 E21.06491
G1 X51.51 Y54.127 E21.08629
G1 X51.627 Y54.01 E21.09455
G0 F3600 X51.91 Y54.293
G1 F1500 X52.136 Y54.124 E21.10863
G1 X52.4 Y54.024 E21.12271
G1 X52.617 Y54 E21.1336
G1 X67.383 Y54 E21.87028
G1 X67.662 Y54.04 E21.88434
G1 X67.919 Y54.156 E21.89841
G1 X68.09 Y54.293 E21.90934
G1 X68.207 Y54.41 E21.9176
G1 X68.376 Y54.636 E21.93168
G1 X68.476 Y54.9 E21.94576
G1 X68.5 Y55.117 E21.95665
G1 X68.5 Y64.883 E22.44388
G1 X68.46 Y65.162 E22.45794
G1 X68.344 Y65.419 E22.47201
G1 X68.207 Y65.59 E22.48294
G1 X68.09 Y65.707 E22.4912
G1 X67.864 Y65.876 E22.50527
G1 X67.6 Y65.976 E22.51936
G1 X67.383 Y66 E22.53025
G1 X52.617 Y66 E23.26693
G1 X52.338 Y65.96 E23.28099
G1 X52.081 Y65.844 E23.29506
G1 X51.91 Y65.707 E23.30599
G1 X51.793 Y65.59 E23.31425
G1 X51.624 Y65.364 E23.32832
G1 X51.524 Y65.1 E23.34241
G1 X51.5 Y64.883 E23.3533
G1 X51.5 Y55.117 E23.84053
G1 X51.54 Y54.838 E23.85459
G1 X51.656 Y54.581 E23.86866
G1 X51.793 Y54.41 E23.87959
G1 X51.91 Y54.293 E23.88784
G0 F3600 X52.193 Y54.576
G1 F1500 X52.372 Y54.452 E23.89871
G1 X52.617 Y54.4 E23.9112
G1 X67.383 Y54.4 E24.64788
G1 X67.598 Y54.44 E24.65879
G1 X67.807 Y54.576 E24.67123
G1 X67.924 Y54.693 E24.67949
G1 X68.048 Y54.872 E24.69035
G1 X68.1 Y55.117 E24.70285
G1 X68.1 Y64.883 E25.19008
G1 X68.06 Y65.098 E25.20099
G1 X67.924 Y65.307 E25.21343
G1 X67.807 Y65.424 E25.22168
G1 X67.628 Y65.548 E25.23254
G1 X67.383 Y65.6 E25.24504
G1 X52.617 Y65.6 E25.98172
G1 X52.402 Y65.56 E25.99263
G1 X52.193 Y65.424 E26.00507
G1 X52.076 Y65.307 E26.01332
G1 X51.952 Y65.128 E26.02419
G1 X51.9 Y64.883 E26.03668
G1 X51.9 Y55.117 E26.52391
G1 X51.94 Y54.902 E26.53482
G1 X52.076 Y54.693 E26.54726
G1 X52.193 Y54.576 E26.55552
G0 F3600 X52.476 Y54.859
G1 F1500 X52.617 Y54.8 E26.56314
G1 X67.383 Y54.8 E27.29982
G1 X67.524 Y54.859 E27.30745
G1 X67.641 Y54.976 E27.3157
G1 X67.7 Y55.117 E27.32333
G1 X67.7 Y64.883 E27.81056
G1 X67.641 Y65.024 E27.81818
G1 X67.524 Y65.141 E27.82644
G1 X67.383 Y65.2 E27.83406
G1 X52.617 Y65.2 E28.57074
G1 X52.476 Y65.141 E28.57837
G1 X52.359 Y65.024 E28.58662
G1 X52.3 Y64.883 E28.59425
G1 X52.3 Y55.117 E29.08147
G1 X52.359 Y54.976 E29.0891
G1 X52.476 Y54.859 E29.09735
G1 F1500 E22.59735
G0 F3600 X52.147 Y54.53
G0 X51.839 Y65.157
G0 X52.168 Y66.407
G1 F1500 E29.09735
G1 X66.934 Y66.407 E29.83403
G1 X67.266 Y66.447 E29.85072
G1 X67.578 Y66.564 E29.86734
G1 X67.924 Y66.817 E29.88872
G1 X68.041 Y66.934 E29.89698
G1 X68.247 Y67.197 E29.91365
G1 X68.386 Y67.501 E29.93032
G1 X68.451 Y67.924 E29.95167
G1 X68.451 Y77.69 E30.4389
G1 X68.411 Y78.022 E30.45559
G1 X68.294 Y78.334 E30.47221
G1 X68.041 Y78.68 E30.49359
G1 X67.924 Y78.797 E30.50185
G1 X67.661 Y79.003 E30.51852
G1 X67.357 Y79.142 E30.53519
G1 X66.934 Y79.207 E30.55654
G1 X52.168 Y79.207 E31.29322
G1 X51.836 Y79.167 E31.30991
G1 X51.524 Y79.05 E31.32653
G1 X51.178 Y78.797 E31.34792
G1 X51.061 Y78.68 E31.35617
G1 X50.855 Y78.417 E31.37284
G1 X50.716 Y78.113 E31.38951
G1 X50.651 Y77.69 E31.41087
G1 X50.651 Y67.924 E31.89809
G1 X50.691 Y67.592 E31.91478
G1 X50.808 Y67.28 E31.9314
G1 X51.061 Y66.934 E31.95279
G1 X51.178 Y66.817 E31.96104
G1 X51.441 Y66.611 E31.97771
G1 X51.745 Y66.472 E31.99438
G1 X52.168 Y66.407 E32.01574
G0 F3600 X51.951 Y66.831
G1 F1500 X52.168 Y66.807 E32.02663
G1 X66.934 Y66.807 E32.76331
G1 X67.213 Y66.847 E32.77737
G1 X67.47 Y66.963 E32.79144
G1 X67.641 Y67.1 E32.80237
G1 X67.758 Y67.217 E32.81062
G1 X67.927 Y67.443 E32.8247
G1 X68.027 Y67.707 E32.83879
G1 X68.051 Y67.924 E32.84968
G1 X68.051 Y77.69 E33.33691
G1 X68.011 Y77.969 E33.35097
G1 X67.895 Y78.226 E33.36503
G1 X67.758 Y78.397 E33.37597
G1 X67.641 Y78.514 E33.38422
G1 X67.415 Y78.683 E33.3983
G1 X67.151 Y78.783 E33.41238
G1 X66.934 Y78.807 E33.42328
G1 X52.168 Y78.807 E34.15995
G1 X51.889 Y78.767 E34.17402
G1 X51.632 Y78.651 E34.18808
G1 X51.461 Y78.514 E34.19902
G1 X51.344 Y78.397 E34.20727
G1 X51.175 Y78.171 E34.22135
G1 X51.075 Y77.907 E34.23543
G1 X51.051 Y77.69 E34.24633
G1 X51.051 Y67.924 E34.73355
G1 X51.091 Y67.645 E34.74762
G1 X51.207 Y67.388 E34.76168
G1 X51.344 Y67.217 E34.77261
G1 X51.461 Y67.1 E34.78087
G1 X51.687 Y66.931 E34.79495
G1 X51.951 Y66.831 E34.80903
G0 F3600 X52.168 Y67.207
G1 F1500 X66.934 Y67.207 E35.54571
G1 X67.149 Y67.247 E35.55662
G1 X67.358 Y67.383 E35.56906
G1 X67.475 Y67.5 E35.57732
G1 X67.599 Y67.679 E35.58818
G1 X67.651 Y67.924 E35.60068
G1 X67.651 Y77.69 E36.0879
G1 X67.611 Y77.905 E36.09881
G1 X67.475 Y78.114 E36.11125
G1 X67.358 Y78.231 E36.11951
G1 X67.179 Y78.355 E36.13037
G1 X66.934 Y78.407 E36.14287
G1 X52.168 Y78.407 E36.87955
G1 X51.953 Y78.367 E36.89046
G1 X51.744 Y78.231 E36.9029
G1 X51.627 Y78.114 E36.91115
G1 X51.503 Y77.935 E36.92202
G1 X51.451 Y77.69 E36.93451
G1 X51.451 Y67.924 E37.42174
G1 X51.491 Y67.709 E37.43265
G1 X51.627 Y67.5 E37.44509
G1 X51.744 Y67.383 E37.45335
G1 X51.923 Y67.259 E37.46421
G1 X52.168 Y67.207 E37.47671
G0 F3600 X52.168 Y67.607
G1 F1500 X66.934 Y67.607 E38.21338
G1 X67.075 Y67.666 E38.22101
G1 X67.192 Y67.783 E38.22926
G1 X67.251 Y67.924 E38.23689
G1 X67.251 Y77.69 E38.72412
G1 X67.192 Y77.831 E38.73174
G1 X67.075 Y77.948 E38.74
G1 X66.934 Y78.007 E38.74762
G1 X52.168 Y78.007 E39.4843
G1 X52.027 Y77.948 E39.49193
G1 X51.91 Y77.831 E39.50018
G1 X51.851 Y77.69 E39.50781
G1 X51.851 Y67.924 E39.99504
G1 X51.91 Y67.783 E40.00266
G1 X52.027 Y67.666 E40.01092
G1 X52.168 Y67.607 E40.01854
G1 F1500 E33.51854
;MESH:small_stub v1.obj
G0 F3600 X52.168 Y67.142
G0 X53.114 Y65.665
G0 X53.114 Y64.386
G0 X52.7 Y64.8
;TYPE:WALL-OUTER
G1 F1500 E40.01854
G1 X52.7 Y55.2 E40.49749
G1 X67.3 Y55.2 E41.22589
G1 X67.3 Y64.8 E41.70483
G1 X52.7 Y64.8 E42.43323
G0 F3600 X52.7 Y64.6
G0 X53.1 Y64.4
;TYPE:WALL-INNER
G1 F1500 X53.1 Y55.6 E42.87226
G1 X66.9 Y55.6 E43.56075
G1 X66.9 Y64.4 E43.99978
G1 X53.1 Y64.4 E44.68827
G0 F3600 X53.49 Y64.01
;TYPE:SKIN
G1 F1500 X53.49 Y55.99 E45.08838
G1 X66.51 Y55.99 E45.73795
G1 X66.51 Y64.01 E46.13807
G1 X53.49 Y64.01 E46.78764
G0 F3600 X54.213 Y63.829
G1 F1500 X53.67 Y63.286 E46.82596
G0 F3600 X53.67 Y62.721
G1 F1500 X54.778 Y63.829 E46.90413
G0 F3600 X55.344 Y63.829
G1 F1500 X53.67 Y62.155 E47.02224
G0 F3600 X53.67 Y61.589
G1 F1500 X55.91 Y63.829 E47.18029
G0 F3600 X56.475 Y63.829
G1 F1500 X53.67 Y61.024 E47.37819
G0 F3600 X53.67 Y60.458
G1 F1500 X57.041 Y63.829 E47.61604
G0 F3600 X57.607 Y63.829
G1 F1500 X53.67 Y59.892 E47.89381
G0 F3600 X53.67 Y59.326
G1 F1500 X58.172 Y63.829 E48.21149
G0 F3600 X58.738 Y63.829
G1 F1500 X53.67 Y58.761 E48.56906
G0 F3600 X53.67 Y58.195
G1 F1500 X59.304 Y63.829 E48.96657
G0 F3600 X59.87 Y63.829
G1 F1500 X53.67 Y57.629 E49.40402
G0 F3600 X53.67 Y57.064
G1 F1500 X60.435 Y63.829 E49.88132
G0 F3600 X61.001 Y63.829
G1 F1500 X53.67 Y56.498 E50.39856
G0 F3600 X53.906 Y56.169
G1 F1500 X61.567 Y63.829 E50.93905
G0 F3600 X62.132 Y63.829
G1 F1500 X54.472 Y56.169 E51.47951
G0 F3600 X55.038 Y56.169
G1 F1500 X62.698 Y63.829 E52.01996
G0 F3600 X63.264 Y63.829
G1 F1500 X55.604 Y56.169 E52.56042
G0 F3600 X56.169 Y56.169
G1 F1500 X63.829 Y63.829 E53.10087
G0 F3600 X64.395 Y63.829
G1 F1500 X56.735 Y56.169 E53.64133
G0 F3600 X57.301 Y56.169
G1 F1500 X64.961 Y63.829 E54.18178
G0 F3600 X65.526 Y63.829
G1 F1500 X57.866 Y56.169 E54.72223
G0 F3600 X58.432 Y56.169
G1 F1500 X66.092 Y63.829 E55.26269
G0 F3600 X66.329 Y63.501
G1 F1500 X58.998 Y56.169 E55.77997
G0 F3600 X59.563 Y56.169
G1 F1500 X66.329 Y62.935 E56.25734
G0 F3600 X66.329 Y62.369
G1 F1500 X60.129 Y56.169 E56.69479
G0 F3600 X60.695 Y56.169
G1 F1500 X66.329 Y61.803 E57.0923
G0 F3600 X66.329 Y61.238
G1 F1500 X61.26 Y56.169 E57.44994
G0 F3600 X61.826 Y56.169
G1 F1500 X66.329 Y60.672 E57.76765
G0 F3600 X66.329 Y60.106
G1 F1500 X62.392 Y56.169 E58.04543
