;FLAVOR:Marlin
;TIME:5867
;Filament used: 2.6488m
;Layer height: 0.1
;MINX:43.271
;MINY:43.038
;MINZ:0.3
;MAXX:71.5
;MAXY:82.829
;MAXZ:42
;Generated with Cura_SteamEngine 4.4.0
M104 S200
M105
M109 S200
M82 ;absolute extrusion mode
G28 ;Home
G1 Z15.0 F6000 ;Move the platform down 15mm
;Prime the extruder
G92 E0
G1 F200 E3
G92 E0
G92 E0
G92 E0
G1 F1500 E-6.5
;LAYER_COUNT:418
;LAYER:0
M107
G0 F3600 X49.379 Y44.046 Z0.3
;TYPE:SKIRT
G1 F1500 E0
G1 X49.496 Y43.929 E0.00825
G1 X49.869 Y43.612 E0.03268
G1 X50.289 Y43.36 E0.05711
G1 X50.744 Y43.18 E0.08152
G1 X51.222 Y43.076 E0.10593
G1 X51.613 Y43.05 E0.12548
G1 X60.531 Y43.038 E0.5704
G1 X61.019 Y43.077 E0.59483
G1 X61.494 Y43.195 E0.61924
G1 X61.943 Y43.389 E0.64365
G1 X62.355 Y43.653 E0.66806
G1 X62.651 Y43.911 E0.68765
G1 X70.567 Y51.785 E1.24469
G1 X70.884 Y52.157 E1.26907
G1 X71.137 Y52.576 E1.29349
G1 X71.273 Y52.895 E1.31079
G1 X71.322 Y53.031 E1.318
G1 X71.45 Y53.504 E1.34245
G1 X71.5 Y54.048 E1.3697
G1 X71.5 Y73.845 E2.35738
G1 X71.46 Y74.333 E2.38181
G1 X71.341 Y74.808 E2.40624
G1 X71.147 Y75.257 E2.43064
G1 X70.882 Y75.669 E2.45508
G1 X70.621 Y75.966 E2.4748
G1 X70.504 Y76.083 E2.48306
G1 X70.131 Y76.4 E2.50748
G1 X69.711 Y76.652 E2.53192
G1 X69.256 Y76.832 E2.55633
G1 X68.778 Y76.936 E2.58073
G1 X68.383 Y76.962 E2.60048
G1 X66.271 Y76.962 E2.70585
G1 X66.271 Y79.712 E2.84305
G1 X66.231 Y80.2 E2.86748
G1 X66.112 Y80.675 E2.89191
G1 X65.918 Y81.124 E2.91631
G1 X65.653 Y81.536 E2.94075
G1 X65.392 Y81.833 E2.96048
G1 X65.275 Y81.95 E2.96873
G1 X64.902 Y82.267 E2.99315
G1 X64.482 Y82.519 E3.01759
G1 X64.027 Y82.699 E3.042
G1 X63.549 Y82.803 E3.06641
G1 X63.154 Y82.829 E3.08616
G1 X60.4 Y82.829 E3.22355
G1 X59.912 Y82.789 E3.24798
G1 X59.437 Y82.67 E3.27241
G1 X58.988 Y82.476 E3.29681
G1 X58.576 Y82.211 E3.32125
G1 X58.279 Y81.95 E3.34098
G1 X58.162 Y81.833 E3.34923
G1 X57.845 Y81.46 E3.37366
G1 X57.593 Y81.04 E3.39809
G1 X57.413 Y80.585 E3.4225
G1 X57.309 Y80.107 E3.44691
G1 X57.283 Y79.714 E3.46656
G1 X57.272 Y61.072 E4.39661
G1 X54.106 Y57.905 E4.62003
G1 X46.388 Y57.905 E5.00508
G1 X45.9 Y57.865 E5.02951
G1 X45.425 Y57.746 E5.05394
G1 X44.976 Y57.552 E5.07834
G1 X44.564 Y57.287 E5.10278
G1 X44.267 Y57.026 E5.1225
G1 X44.15 Y56.909 E5.13076
G1 X43.833 Y56.536 E5.15518
G1 X43.581 Y56.116 E5.17962
G1 X43.401 Y55.661 E5.20403
G1 X43.297 Y55.183 E5.22843
G1 X43.271 Y54.788 E5.24818
G1 X43.271 Y52.034 E5.38558
G1 X43.311 Y51.546 E5.41001
G1 X43.43 Y51.071 E5.43444
G1 X43.624 Y50.622 E5.45884
G1 X43.889 Y50.21 E5.48328
G1 X44.15 Y49.913 E5.50301
G1 X44.267 Y49.796 E5.51126
G1 X44.64 Y49.479 E5.53568
G1 X45.06 Y49.227 E5.56012
G1 X45.515 Y49.047 E5.58453
G1 X45.993 Y48.943 E5.60894
G1 X46.384 Y48.917 E5.62849
G1 X48.5 Y48.914 E5.73406
G1 X48.5 Y46.167 E5.8711
G1 X48.54 Y45.679 E5.89553
G1 X48.659 Y45.204 E5.91996
G1 X48.853 Y44.755 E5.94436
G1 X49.118 Y44.343 E5.9688
G1 X49.379 Y44.046 E5.98853
G0 F3600 X49.662 Y44.329
G1 F1500 X49.779 Y44.212 E5.99678
G1 X50.128 Y43.919 E6.01952
G1 X50.523 Y43.692 E6.04225
G1 X50.951 Y43.537 E6.06496
G1 X51.614 Y43.45 E6.09832
G1 X60.532 Y43.438 E6.54324
G1 X60.985 Y43.477 E6.56592
G1 X61.426 Y43.595 E6.5887
G1 X61.838 Y43.788 E6.6114
G1 X62.369 Y44.195 E6.64478
G1 X70.285 Y52.069 E7.20181
G1 X70.578 Y52.417 E7.22451
G1 X70.807 Y52.811 E7.24724
G1 X70.897 Y53.031 E7.2591
G1 X70.946 Y53.167 E7.26632
G1 X71.062 Y53.607 E7.28902
G1 X71.1 Y54.048 E7.3111
G1 X71.1 Y73.845 E8.29878
G1 X71.06 Y74.299 E8.32151
G1 X70.942 Y74.739 E8.34424
G1 X70.748 Y75.151 E8.36696
G1 X70.338 Y75.683 E8.40047
G1 X70.221 Y75.8 E8.40873
G1 X69.872 Y76.093 E8.43146
G1 X69.477 Y76.32 E8.45419
G1 X69.049 Y76.475 E8.4769
G1 X68.383 Y76.562 E8.51041
G1 X65.871 Y76.562 E8.63573
G1 X65.871 Y79.712 E8.79289
G1 X65.831 Y80.166 E8.81562
G1 X65.713 Y80.606 E8.83835
G1 X65.519 Y81.018 E8.86107
G1 X65.109 Y81.55 E8.89458
G1 X64.992 Y81.667 E8.90284
G1 X64.643 Y81.96 E8.92557
G1 X64.248 Y82.187 E8.9483
G1 X63.82 Y82.342 E8.97101
G1 X63.154 Y82.429 E9.00452
G1 X60.4 Y82.429 E9.14192
G1 X59.946 Y82.389 E9.16465
G1 X59.506 Y82.271 E9.18738
G1 X59.094 Y82.077 E9.2101
G1 X58.562 Y81.667 E9.24361
G1 X58.445 Y81.55 E9.25186
G1 X58.152 Y81.201 E9.2746
G1 X57.925 Y80.806 E9.29733
G1 X57.77 Y80.378 E9.32004
G1 X57.683 Y79.714 E9.35345
G1 X57.672 Y60.905 E10.29183
G1 X54.272 Y57.505 E10.53172
G1 X46.388 Y57.505 E10.92506
G1 X45.934 Y57.465 E10.94779
G1 X45.494 Y57.347 E10.97052
G1 X45.082 Y57.153 E10.99324
G1 X44.55 Y56.743 E11.02675
G1 X44.433 Y56.626 E11.035
G1 X44.14 Y56.277 E11.05774
G1 X43.913 Y55.882 E11.08047
G1 X43.758 Y55.454 E11.10318
G1 X43.671 Y54.788 E11.13669
G1 X43.671 Y52.034 E11.27409
G1 X43.711 Y51.58 E11.29682
G1 X43.829 Y51.14 E11.31955
G1 X44.023 Y50.728 E11.34227
G1 X44.433 Y50.196 E11.37578
G1 X44.55 Y50.079 E11.38403
G1 X44.899 Y49.786 E11.40677
G1 X45.294 Y49.559 E11.4295
G1 X45.722 Y49.404 E11.45221
G1 X46.385 Y49.317 E11.48557
G1 X48.951 Y49.314 E11.61359
G1 X48.9 Y48.921 E11.63336
G1 X48.9 Y46.167 E11.77076
G1 X48.94 Y45.713 E11.79349
G1 X49.058 Y45.273 E11.81622
G1 X49.252 Y44.861 E11.83894
G1 X49.662 Y44.329 E11.87245
G0 F3600 X49.944 Y44.611
G1 F1500 X50.061 Y44.494 E11.8807
G1 X50.385 Y44.228 E11.90162
G1 X50.752 Y44.027 E11.92249
G1 X51.152 Y43.9 E11.94343
G1 X51.614 Y43.85 E11.96662
G1 X60.532 Y43.838 E12.41154
G1 X60.949 Y43.877 E12.43243
G1 X61.351 Y43.995 E12.45333
G1 X61.724 Y44.187 E12.47426
G1 X62.086 Y44.478 E12.49744
G1 X70.002 Y52.352 E13.05447
G1 X70.27 Y52.675 E13.07541
G1 X70.521 Y53.166 E13.10292
G1 X70.57 Y53.302 E13.11014
G1 X70.674 Y53.708 E13.13104
G1 X70.7 Y54.048 E13.14806
G1 X70.7 Y73.845 E14.13573
G1 X70.66 Y74.262 E14.15663
G1 X70.542 Y74.664 E14.17754
G1 X70.349 Y75.036 E14.19844
G1 X70.056 Y75.401 E14.22179
G1 X69.939 Y75.518 E14.23005
G1 X69.615 Y75.784 E14.25096
G1 X69.248 Y75.985 E14.27184
G1 X68.848 Y76.112 E14.29278
G1 X68.383 Y76.162 E14.31611
G1 X65.629 Y76.162 E14.45351
G1 X65.471 Y76.147 E14.46143
G1 X65.471 Y79.712 E14.63928
G1 X65.431 Y80.129 E14.66018
G1 X65.313 Y80.531 E14.68109
G1 X65.12 Y80.903 E14.70199
G1 X64.827 Y81.268 E14.72535
G1 X64.71 Y81.385 E14.7336
G1 X64.386 Y81.651 E14.75452
G1 X64.019 Y81.852 E14.77539
G1 X63.619 Y81.979 E14.79633
G1 X63.154 Y82.029 E14.81966
G1 X60.4 Y82.029 E14.95706
G1 X59.983 Y81.989 E14.97796
G1 X59.581 Y81.871 E14.99886
G1 X59.209 Y81.678 E15.01977
G1 X58.844 Y81.385 E15.04312
G1 X58.727 Y81.268 E15.05138
G1 X58.461 Y80.944 E15.07229
G1 X58.26 Y80.577 E15.09317
G1 X58.133 Y80.177 E15.1141
G1 X58.083 Y79.713 E15.13739
G1 X58.072 Y60.739 E16.084
G1 X54.438 Y57.105 E16.3404
G1 X46.388 Y57.105 E16.74202
G1 X45.971 Y57.065 E16.76292
G1 X45.569 Y56.947 E16.78382
G1 X45.197 Y56.754 E16.80473
G1 X44.832 Y56.461 E16.82808
G1 X44.715 Y56.344 E16.83633
G1 X44.449 Y56.02 E16.85725
G1 X44.248 Y55.653 E16.87812
G1 X44.121 Y55.253 E16.89906
G1 X44.071 Y54.788 E16.92239
G1 X44.071 Y52.034 E17.05979
G1 X44.111 Y51.617 E17.08069
G1 X44.229 Y51.215 E17.10159
G1 X44.422 Y50.843 E17.1225
G1 X44.715 Y50.478 E17.14585
G1 X44.832 Y50.361 E17.15411
G1 X45.156 Y50.095 E17.17502
G1 X45.523 Y49.894 E17.1959
G1 X45.923 Y49.767 E17.21684
G1 X46.385 Y49.717 E17.24002
G1 X49.454 Y49.713 E17.39313
G1 X49.35 Y49.386 E17.41025
G1 X49.3 Y48.921 E17.43359
G1 X49.3 Y46.167 E17.57098
G1 X49.34 Y45.75 E17.59188
G1 X49.458 Y45.348 E17.61278
G1 X49.651 Y44.976 E17.63369
G1 X49.944 Y44.611 E17.65704
G0 F3600 X50.227 Y44.894
G1 F1500 X50.344 Y44.777 E17.6653
G1 X50.639 Y44.539 E17.68421
G1 X50.977 Y44.368 E17.70311
G1 X51.343 Y44.271 E17.722
G1 X51.615 Y44.25 E17.73561
G1 X60.533 Y44.238 E18.18053
G1 X60.909 Y44.277 E18.19939
G1 X61.27 Y44.395 E18.21834
G1 X61.598 Y44.585 E18.23725
G1 X61.804 Y44.762 E18.2508
G1 X69.72 Y52.636 E18.80784
G1 X69.959 Y52.93 E18.82674
G1 X70.144 Y53.302 E18.84747
G1 X70.193 Y53.438 E18.85468
G1 X70.284 Y53.806 E18.87359
G1 X70.3 Y54.048 E18.88569
G1 X70.3 Y73.845 E19.87337
G1 X70.26 Y74.222 E19.89228
G1 X70.142 Y74.582 E19.91118
G1 X69.952 Y74.909 E19.93005
G1 X69.773 Y75.118 E19.94378
G1 X69.656 Y75.235 E19.95203
G1 X69.361 Y75.473 E19.97094
G1 X69.023 Y75.644 E19.98984
G1 X68.657 Y75.741 E20.00873
G1 X68.383 Y75.762 E20.02244
G1 X65.629 Y75.762 E20.15984
G1 X65.252 Y75.722 E20.17875
G1 X65.071 Y75.663 E20.18825
G1 X65.071 Y79.712 E20.39026
G1 X65.031 Y80.089 E20.40917
G1 X64.913 Y80.449 E20.42807
G1 X64.723 Y80.776 E20.44694
G1 X64.544 Y80.985 E20.46067
G1 X64.427 Y81.102 E20.46892
G1 X64.132 Y81.34 E20.48783
G1 X63.794 Y81.511 E20.50673
G1 X63.428 Y81.608 E20.52562
G1 X63.154 Y81.629 E20.53933
G1 X60.4 Y81.629 E20.67673
G1 X60.023 Y81.589 E20.69564
G1 X59.663 Y81.471 E20.71454
G1 X59.336 Y81.281 E20.73341
G1 X59.127 Y81.102 E20.74714
G1 X59.01 Y80.985 E20.7554
G1 X58.772 Y80.69 E20.77431
G1 X58.601 Y80.352 E20.7932
G1 X58.504 Y79.986 E20.81209
G1 X58.483 Y79.713 E20.82575
G1 X58.471 Y60.574 E21.7806
G1 X54.603 Y56.705 E22.05355
G1 X46.388 Y56.705 E22.46339
G1 X46.011 Y56.665 E22.48231
G1 X45.651 Y56.547 E22.50121
G1 X45.324 Y56.357 E22.52008
G1 X45.115 Y56.178 E22.53381
G1 X44.998 Y56.061 E22.54206
G1 X44.76 Y55.766 E22.56097
G1 X44.589 Y55.428 E22.57987
G1 X44.492 Y55.062 E22.59876
G1 X44.471 Y54.788 E22.61247
G1 X44.471 Y52.034 E22.74987
G1 X44.511 Y51.657 E22.76878
G1 X44.629 Y51.297 E22.78768
G1 X44.819 Y50.97 E22.80655
G1 X44.998 Y50.761 E22.82028
G1 X45.115 Y50.644 E22.82853
G1 X45.41 Y50.406 E22.84744
G1 X45.748 Y50.235 E22.86634
G1 X46.114 Y50.138 E22.88523
G1 X46.386 Y50.117 E22.89884
G1 X50.161 Y50.112 E23.08718
G1 X49.989 Y49.899 E23.10084
G1 X49.818 Y49.561 E23.11974
G1 X49.721 Y49.195 E23.13863
G1 X49.7 Y48.921 E23.15234
G1 X49.7 Y46.167 E23.28973
G1 X49.74 Y45.79 E23.30865
G1 X49.858 Y45.43 E23.32755
G1 X50.048 Y45.103 E23.34642
G1 X50.227 Y44.894 E23.36014
G0 F3600 X50.51 Y45.177
G1 F1500 X50.627 Y45.06 E23.3684
G1 X50.89 Y44.854 E23.38507
G1 X51.194 Y44.715 E23.40174
G1 X51.615 Y44.65 E23.423
G1 X60.533 Y44.638 E23.86792
G1 X60.865 Y44.677 E23.88459
G1 X61.178 Y44.794 E23.90127
G1 X61.522 Y45.045 E23.92251
G1 X69.438 Y52.919 E24.47955
G1 X69.645 Y53.182 E24.49625
G1 X69.768 Y53.437 E24.51037
G1 X69.817 Y53.573 E24.51758
G1 X69.9 Y54.048 E24.54164
G1 X69.9 Y73.845 E25.52932
G1 X69.86 Y74.177 E25.546
G1 X69.743 Y74.489 E25.56262
G1 X69.49 Y74.835 E25.58401
G1 X69.373 Y74.952 E25.59226
G1 X69.11 Y75.158 E25.60893
G1 X68.806 Y75.297 E25.62561
G1 X68.383 Y75.362 E25.64696
G1 X65.629 Y75.362 E25.78436
G1 X65.297 Y75.322 E25.80104
G1 X64.985 Y75.205 E25.81766
G1 X64.671 Y74.975 E25.83708
G1 X64.671 Y79.712 E26.07341
G1 X64.631 Y80.044 E26.09009
G1 X64.514 Y80.356 E26.10672
G1 X64.261 Y80.702 E26.1281
G1 X64.144 Y80.819 E26.13636
G1 X63.881 Y81.025 E26.15303
G1 X63.577 Y81.164 E26.1697
G1 X63.154 Y81.229 E26.19105
G1 X60.4 Y81.229 E26.32845
G1 X60.068 Y81.189 E26.34513
G1 X59.756 Y81.072 E26.36176
G1 X59.41 Y80.819 E26.38314
G1 X59.293 Y80.702 E26.3914
G1 X59.087 Y80.439 E26.40807
G1 X58.948 Y80.135 E26.42474
G1 X58.883 Y79.713 E26.44604
G1 X58.871 Y60.408 E27.40917
G1 X54.769 Y56.305 E27.69863
G1 X46.388 Y56.305 E28.11676
G1 X46.056 Y56.265 E28.13344
G1 X45.744 Y56.148 E28.15007
G1 X45.398 Y55.895 E28.17145
G1 X45.281 Y55.778 E28.1797
G1 X45.075 Y55.515 E28.19637
G1 X44.936 Y55.211 E28.21305
G1 X44.871 Y54.788 E28.2344
G1 X44.871 Y52.034 E28.3718
G1 X44.911 Y51.702 E28.38848
G1 X45.028 Y51.39 E28.4051
G1 X45.281 Y51.044 E28.42649
G1 X45.398 Y50.927 E28.43474
G1 X45.661 Y50.721 E28.45141
G1 X45.965 Y50.582 E28.46809
G1 X46.386 Y50.517 E28.48934
G1 X55.304 Y50.505 E28.93426
G1 X55.636 Y50.544 E28.95094
G1 X55.949 Y50.661 E28.96761
G1 X56.293 Y50.912 E28.98886
G1 X64.103 Y58.68 E29.53841
G1 X64.1 Y54.541 E29.74491
G1 X59.998 Y50.438 E30.03436
G1 X51.617 Y50.438 E30.45249
G1 X51.285 Y50.398 E30.46918
G1 X50.973 Y50.281 E30.4858
G1 X50.627 Y50.028 E30.50718
G1 X50.51 Y49.911 E30.51544
G1 X50.304 Y49.648 E30.53211
G1 X50.165 Y49.344 E30.54878
G1 X50.1 Y48.921 E30.57013
G1 X50.1 Y46.167 E30.70753
G1 X50.14 Y45.835 E30.72422
G1 X50.257 Y45.523 E30.74084
G1 X50.51 Y45.177 E30.76222
G0 F3600 X50.793 Y45.46
G1 F1500 X50.91 Y45.343 E30.77048
G1 X51.136 Y45.174 E30.78456
G1 X51.4 Y45.074 E30.79864
G1 X51.616 Y45.05 E30.80949
G1 X60.534 Y45.038 E31.25441
G1 X60.813 Y45.077 E31.26846
G1 X61.07 Y45.193 E31.28253
G1 X61.24 Y45.329 E31.29339
G1 X69.156 Y53.203 E31.85043
G1 X69.326 Y53.428 E31.8645
G1 X69.392 Y53.573 E31.87244
G1 X69.441 Y53.709 E31.87966
G1 X69.5 Y54.048 E31.89682
G1 X69.5 Y73.845 E32.8845
G1 X69.46 Y74.124 E32.89856
G1 X69.344 Y74.381 E32.91263
G1 X69.207 Y74.552 E32.92356
G1 X69.09 Y74.669 E32.93182
G1 X68.864 Y74.838 E32.94589
G1 X68.6 Y74.938 E32.95998
G1 X68.383 Y74.962 E32.97087
G1 X65.629 Y74.962 E33.10827
G1 X65.35 Y74.922 E33.12233
G1 X65.093 Y74.806 E33.1364
G1 X64.922 Y74.669 E33.14733
G1 X64.805 Y74.552 E33.15558
G1 X64.636 Y74.326 E33.16966
G1 X64.536 Y74.062 E33.18375
G1 X64.512 Y73.846 E33.19459
G1 X64.5 Y54.375 E34.166
G1 X60.164 Y50.038 E34.47197
G1 X51.617 Y50.038 E34.89838
G1 X51.338 Y49.998 E34.91244
G1 X51.081 Y49.882 E34.92651
G1 X50.91 Y49.745 E34.93744
G1 X50.793 Y49.628 E34.94569
G1 X50.624 Y49.402 E34.95977
G1 X50.524 Y49.138 E34.97386
G1 X50.5 Y48.921 E34.98475
G1 X50.5 Y46.167 E35.12215
G1 X50.54 Y45.888 E35.13621
G1 X50.656 Y45.631 E35.15027
G1 X50.793 Y45.46 E35.16121
G0 F3600 X51.076 Y45.743
G1 F1500 X51.193 Y45.626 E35.16946
G1 X51.372 Y45.502 E35.18033
G1 X51.616 Y45.45 E35.19277
G1 X60.534 Y45.438 E35.63769
G1 X60.749 Y45.477 E35.64859
G1 X60.958 Y45.613 E35.66103
G1 X68.874 Y53.487 E36.21807
G1 X69.015 Y53.709 E36.23119
G1 X69.064 Y53.845 E36.2384
G1 X69.1 Y54.048 E36.24869
G1 X69.1 Y73.845 E37.23637
G1 X69.06 Y74.06 E37.24728
G1 X68.924 Y74.269 E37.25972
G1 X68.807 Y74.386 E37.26797
G1 X68.628 Y74.51 E37.27884
G1 X68.383 Y74.562 E37.29133
G1 X65.629 Y74.562 E37.42873
G1 X65.414 Y74.522 E37.43964
G1 X65.205 Y74.386 E37.45208
G1 X65.088 Y74.269 E37.46033
G1 X64.964 Y74.09 E37.4712
G1 X64.912 Y73.845 E37.48369
G1 X64.9 Y54.209 E38.46334
G1 X60.33 Y49.638 E38.78581
G1 X51.617 Y49.638 E39.2205
G1 X51.402 Y49.598 E39.23142
G1 X51.193 Y49.462 E39.24386
G1 X51.076 Y49.345 E39.25211
G1 X50.952 Y49.166 E39.26297
G1 X50.9 Y48.921 E39.27547
G1 X50.9 Y46.167 E39.41287
G1 X50.94 Y45.952 E39.42378
G1 X51.076 Y45.743 E39.43622
G0 F3600 X51.359 Y46.026
G1 F1500 X51.476 Y45.909 E39.44447
G1 X51.617 Y45.85 E39.4521
G1 X60.535 Y45.838 E39.89702
G1 X60.676 Y45.896 E39.90463
G1 X68.592 Y53.77 E40.46166
G1 X68.639 Y53.844 E40.46604
G1 X68.688 Y53.98 E40.47325
G1 X68.7 Y54.048 E40.47669
G1 X68.7 Y73.845 E41.46437
G1 X68.641 Y73.986 E41.472
G1 X68.524 Y74.103 E41.48025
G1 X68.383 Y74.162 E41.48788
G1 X65.629 Y74.162 E41.62527
G1 X65.488 Y74.103 E41.6329
G1 X65.371 Y73.986 E41.64115
G1 X65.312 Y73.845 E41.64878
G1 X65.3 Y54.043 E42.63671
G1 X60.496 Y49.238 E42.97569
G1 X51.617 Y49.238 E43.41866
G1 X51.476 Y49.179 E43.42629
G1 X51.359 Y49.062 E43.43454
G1 X51.3 Y48.921 E43.44217
G1 X51.3 Y46.167 E43.57957
G1 X51.359 Y46.026 E43.58719
G1 F1500 E37.08719
G0 F3600 X50.835 Y46.026
G0 X46.387 Y50.917
G1 F1500 E43.58719
G1 X55.305 Y50.905 E44.03211
G1 X55.584 Y50.944 E44.04617
G1 X55.841 Y51.06 E44.06024
G1 X56.011 Y51.196 E44.0711
G1 X63.927 Y59.07 E44.62813
G1 X64.097 Y59.295 E44.6422
G1 X64.163 Y59.44 E44.65015
G1 X64.212 Y59.576 E44.65736
G1 X64.271 Y59.915 E44.67453
G1 X64.271 Y79.712 E45.66221
G1 X64.231 Y79.991 E45.67627
G1 X64.115 Y80.248 E45.69034
G1 X63.978 Y80.419 E45.70127
G1 X63.861 Y80.536 E45.70952
G1 X63.635 Y80.705 E45.7236
G1 X63.371 Y80.805 E45.73769
G1 X63.154 Y80.829 E45.74858
G1 X60.4 Y80.829 E45.88598
G1 X60.121 Y80.789 E45.90004
G1 X59.864 Y80.673 E45.91411
G1 X59.693 Y80.536 E45.92504
G1 X59.576 Y80.419 E45.93329
G1 X59.407 Y80.193 E45.94737
G1 X59.307 Y79.929 E45.96146
G1 X59.283 Y79.713 E45.9723
G1 X59.271 Y60.242 E46.94371
G1 X54.935 Y55.905 E47.24967
G1 X46.388 Y55.905 E47.67609
G1 X46.109 Y55.865 E47.69015
G1 X45.852 Y55.749 E47.70421
G1 X45.681 Y55.612 E47.71515
G1 X45.564 Y55.495 E47.7234
G1 X45.395 Y55.269 E47.73748
G1 X45.295 Y55.005 E47.75156
G1 X45.271 Y54.788 E47.76246
G1 X45.271 Y52.034 E47.89985
