;FLAVOR:UltiGCode
;TIME:8596
;MATERIAL:10007
;MATERIAL2:0
;NOZZLE_DIAMETER:0.4
;MINX:25.8
;MINY:9.3
;MINZ:0.3
;MAXX:94.2
;MAXY:110.7
;MAXZ:21
;Generated with Cura_SteamEngine 4.4.0
M82 ;absolute extrusion mode
G28 ;Home
G1 Z15.0 F6000 ;Move the platform down 15mm
;Prime the extruder
G92 E0
G1 F200 E3
G92 E0
G92 E0
G92 E0
G10
;LAYER_COUNT:208
;LAYER:0
M107
G0 F3600 X34.185 Y16.006 Z0.3
;TYPE:SKIRT
G11
G1 F1650 X34.457 Y15.58 E0.06065
G1 X34.792 Y15.202 E0.12126
G1 X35.21 Y14.864 E0.18577
G1 X36.002 Y14.325 E0.30073
G1 X36.047 Y14.294 E0.30729
G1 X36.663 Y13.89 E0.39569
G1 X38.91 Y12.325 E0.72428
G1 X41.726 Y10.226 E1.14575
G1 X42.047 Y9.978 E1.19442
G1 X42.47 Y9.701 E1.2551
G1 X42.931 Y9.495 E1.31569
G1 X43.42 Y9.364 E1.37644
G1 X43.946 Y9.311 E1.43988
G1 X44.505 Y9.301 E1.50697
G1 X44.562 Y9.3 E1.51381
G1 X60.818 Y9.3 E3.46453
G1 X62.719 Y9.327 E3.69268
G1 X65.478 Y9.327 E4.02376
G1 X66.623 Y9.302 E4.16119
G1 X66.693 Y9.301 E4.16959
G1 X83.293 Y9.3 E6.16159
G1 X83.339 Y9.3 E6.16711
G1 X84.037 Y9.31 E6.25088
G1 X84.54 Y9.357 E6.3115
G1 X85.03 Y9.483 E6.37221
G1 X85.494 Y9.685 E6.43294
G1 X85.924 Y9.96 E6.49419
G1 X88.036 Y11.561 E6.81222
G1 X90.247 Y13.147 E7.13874
G1 X92.77 Y14.846 E7.50375
G1 X93.165 Y15.16 E7.5643
G1 X93.506 Y15.533 E7.62495
G1 X93.785 Y15.956 E7.68575
G1 X93.993 Y16.416 E7.74633
G1 X94.126 Y16.904 E7.80703
G1 X94.177 Y17.326 E7.85804
G1 X94.195 Y17.656 E7.8977
G1 X94.2 Y17.83 E7.91859
G1 X94.2 Y21.819 E8.39727
G1 X94.19 Y22.536 E8.48331
G1 X94.143 Y23.039 E8.54394
G1 X93.999 Y23.579 E8.611
G1 X93.812 Y24.096 E8.67697
G1 X93.789 Y24.158 E8.68491
G1 X93.187 Y25.721 E8.8859
G1 X92.275 Y28.302 E9.21439
G1 X91.441 Y30.896 E9.54136
G1 X90.674 Y33.536 E9.87126
G1 X89.983 Y36.192 E10.20059
G1 X89.361 Y38.886 E10.53238
G1 X88.833 Y41.53 E10.85592
G1 X88.367 Y44.248 E11.18684
G1 X87.982 Y46.957 E11.51519
G1 X87.678 Y49.625 E11.83742
G1 X87.442 Y52.41 E12.17281
G1 X87.288 Y55.132 E12.49998
G1 X87.2 Y59.234 E12.99233
G1 X87.2 Y106.808 E18.70121
G1 X87.19 Y107.535 E18.78846
G1 X87.143 Y108.038 E18.84908
G1 X87.017 Y108.528 E18.90979
G1 X86.816 Y108.992 E18.97047
G1 X86.544 Y109.418 E19.03113
G1 X86.209 Y109.797 E19.09183
G1 X85.818 Y110.117 E19.15246
G1 X85.382 Y110.372 E19.21307
G1 X84.911 Y110.556 E19.27375
G1 X84.416 Y110.662 E19.33449
G1 X84.08 Y110.69 E19.37495
G1 X83.76 Y110.699 E19.41337
G1 X83.67 Y110.7 E19.42417
G1 X44.661 Y110.7 E24.10525
G1 X43.963 Y110.69 E24.18902
G1 X43.46 Y110.643 E24.24964
G1 X42.97 Y110.517 E24.31035
G1 X42.506 Y110.315 E24.37108
G1 X42.286 Y110.186 E24.40169
G1 X41.995 Y110 E24.44313
G1 X41.926 Y109.955 E24.45301
G1 X40.234 Y108.811 E24.69811
G1 X37.919 Y107.34 E25.02725
G1 X35.582 Y105.948 E25.35366
G1 X33.172 Y104.601 E25.68497
G1 X30.727 Y103.325 E26.01592
G1 X28.267 Y102.128 E26.34422
G1 X27.766 Y101.893 E26.41062
G1 X27.327 Y101.643 E26.47124
G1 X26.872 Y101.269 E26.54192
G1 X26.757 Y101.155 E26.56135
G1 X26.427 Y100.771 E26.62211
G1 X26.162 Y100.341 E26.68272
G1 X25.968 Y99.874 E26.74341
G1 X25.849 Y99.383 E26.80403
G1 X25.81 Y98.935 E26.858
G1 X25.8 Y98.335 E26.93001
G1 X25.8 Y86.665 E28.33041
G1 X25.81 Y85.968 E28.41405
G1 X25.857 Y85.465 E28.47468
G1 X25.983 Y84.975 E28.53539
G1 X26.109 Y84.663 E28.57577
G1 X26.651 Y83.499 E28.72985
G1 X27.778 Y81.004 E29.05838
G1 X28.859 Y78.424 E29.39405
G1 X29.82 Y75.922 E29.71568
G1 X30.734 Y73.334 E30.04504
G1 X31.568 Y70.74 E30.37201
G1 X32.333 Y68.108 E30.70092
G1 X33.031 Y65.428 E31.03325
G1 X33.643 Y62.771 E31.36044
G1 X34.182 Y60.081 E31.68965
G1 X34.638 Y57.41 E32.01481
G1 X35.025 Y54.7 E32.34331
G1 X35.34 Y51.921 E32.67893
G1 X35.566 Y49.258 E32.99963
G1 X35.722 Y46.51 E33.32993
G1 X35.8 Y43.743 E33.6621
G1 X35.8 Y41.041 E33.98634
G1 X35.722 Y38.289 E34.31671
G1 X35.566 Y35.542 E34.64688
G1 X35.34 Y32.878 E34.96771
G1 X35.024 Y30.09 E35.30441
G1 X34.643 Y27.411 E35.62913
G1 X34.179 Y24.704 E35.9587
G1 X33.899 Y23.259 E36.13533
G1 X33.853 Y22.923 E36.17603
G1 X33.812 Y22.442 E36.23395
G1 X33.8 Y22.17 E36.26663
G1 X33.8 Y18.161 E36.74771
G1 X33.81 Y17.463 E36.83147
G1 X33.857 Y16.96 E36.8921
G1 X33.983 Y16.47 E36.95281
G1 X34.185 Y16.006 E37.01354
G10
G0 F3600 X28.339 Y85.847
G0 X28.339 Y95.161
G0 X29.201 Y95.904
;TYPE:SUPPORT
G11
G1 F1650 X43.1 Y95.904 E38.68142
G1 X43.1 Y98.804 E39.02942
G1 X29.2 Y98.804 E40.69742
G1 X29.201 Y95.904 E41.04542
G0 F3600 X32.004 Y96.064
G1 F1650 X32.004 Y98.644 E41.35502
G0 F3600 X34.671 Y98.644
G1 F1650 X34.671 Y96.064 E41.66462
G0 F3600 X37.338 Y96.064
G1 F1650 X37.338 Y98.644 E41.97422
G0 F3600 X40.005 Y98.644
G1 F1650 X40.005 Y96.064 E42.28382
G0 F3600 X42.672 Y96.064
G1 F1650 X42.672 Y98.644 E42.59342
G10
;MESH:stand_part v15.obj
G0 F3600 X44.42 Y98.644
G0 X48.986 Y99.111
G0 X49.866 Y99.61
G0 X50.373 Y100.482
G0 X50.6 Y104.317
;TYPE:WALL-INNER
G11
G1 F1650 X50.6 Y101.048 E42.9857
G1 X50.53 Y100.438 E43.05938
G1 X50.314 Y99.926 E43.12606
G1 X49.977 Y99.492 E43.192
G1 X49.536 Y99.16 E43.25824
G1 X49.027 Y98.954 E43.32413
G1 X48.482 Y98.888 E43.39001
G1 X47.94 Y98.964 E43.45569
G1 X47.435 Y99.177 E43.52146
G1 X47.001 Y99.514 E43.58739
G1 X46.669 Y99.954 E43.65354
G1 X46.464 Y100.462 E43.71927
G1 X46.4 Y100.952 E43.77857
G1 X46.4 Y103.927 E44.13557
G1 X46.452 Y104.486 E44.20294
G1 X46.631 Y104.969 E44.26476
G1 X46.919 Y105.388 E44.32577
G1 X47.298 Y105.727 E44.38679
G1 X47.747 Y105.964 E44.44771
G1 X48.239 Y106.088 E44.5086
G1 X48.748 Y106.089 E44.56968
G1 X49.242 Y105.97 E44.63065
G1 X49.693 Y105.734 E44.69174
G1 X50.073 Y105.398 E44.7526
G1 X50.368 Y104.971 E44.81488
G1 X50.554 Y104.433 E44.88319
G1 X50.561 Y104.342 E44.89415
G1 X50.6 Y104.317 E44.8997
G0 F3600 X52.79 Y85.997
G1 F1650 X52.395 Y89 E45.26317
G1 X52.79 Y92.003 E45.62663
G1 X53.95 Y94.803 E45.99033
G1 X55.794 Y97.206 E46.3538
G1 X58.197 Y99.05 E46.71728
G1 X60.997 Y100.21 E47.08098
G1 X64 Y100.605 E47.44444
G1 X67.003 Y100.21 E47.8079
G1 X69.803 Y99.05 E48.1716
G1 X72.206 Y97.206 E48.53507
G1 X74.05 Y94.803 E48.89855
G1 X75.21 Y92.003 E49.26225
G1 X75.605 Y89 E49.62571
G1 X75.21 Y85.997 E49.98917
G1 X74.05 Y83.197 E50.35287
G1 X72.206 Y80.794 E50.71634
G1 X69.803 Y78.95 E51.07982
G1 X67.003 Y77.79 E51.44352
G1 X64 Y77.395 E51.80698
G1 X60.997 Y77.79 E52.17044
G1 X58.197 Y78.95 E52.53414
G1 X55.794 Y80.794 E52.89762
G1 X53.95 Y83.197 E53.26109
G1 X52.79 Y85.997 E53.62479
G0 F3600 X46.826 Y77.004
G0 X45.4 Y71.1
G1 F1650 X46.988 Y71.1 E53.81535
G1 X47.38 Y71.1 E53.86239
G1 X47.632 Y71.1 E53.89263
G1 X47.38 Y71.217 E53.8994
G1 X47.078 Y71.467 E53.9308
G1 X46.966 Y71.56 E53.94827
G1 X46.656 Y71.986 E54.0115
G1 X46.461 Y72.503 E54.0778
G1 X46.4 Y72.941 E54.13087
G1 X46.4 Y75.71 E54.46315
G1 X46.46 Y76.552 E54.56445
G1 X46.686 Y77.086 E54.63403
G1 X47.023 Y77.52 E54.69997
G1 X47.464 Y77.852 E54.76621
G1 X47.973 Y78.058 E54.8321
G1 X48.518 Y78.124 E54.89798
G1 X49.06 Y78.048 E54.96365
G1 X49.565 Y77.835 E55.02942
G1 X49.999 Y77.498 E55.09536
G1 X50.33 Y77.059 E55.16134
G1 X50.536 Y76.552 E55.22701
G1 X50.6 Y76.06 E55.28654
G1 X50.6 Y72.4 E55.72574
G1 X50.435 Y72.4 E55.74554
G1 X50.425 Y72.315 E55.75581
G1 X50.119 Y71.711 E55.83707
G1 X49.852 Y71.456 E55.88137
G1 X49.574 Y71.191 E55.92746
G1 X49.339 Y71.1 E55.9577
G1 X49.574 Y71.1 E55.96048
G1 X49.959 Y71.1 E55.99016
G1 X62.402 Y71.1 E57.48332
G1 X62.708 Y70.359 E57.57952
G1 X61.807 Y69.458 E57.73243
G1 X61.708 Y69.359 E57.74923
G1 X47.141 Y54.792 E60.22133
G1 X47.042 Y54.693 E60.23813
G1 X46.141 Y53.792 E60.39103
G1 X45.4 Y54.098 E60.48724
G1 X45.4 Y71.1 E62.52748
G0 F3600 X45.567 Y54.21
G0 X62.6 Y53.9
G1 F1650 X47.598 Y53.9 E64.32772
G1 X47.345 Y54.512 E64.40719
G1 X47.292 Y54.641 E64.42066
G1 X61.859 Y69.208 E65.73702
G1 X61.988 Y69.155 E65.75049
G1 X62.6 Y68.902 E65.82996
G1 X62.6 Y53.9 E67.6302
G0 F3600 X65.4 Y53.9
G1 F1650 X65.4 Y68.902 E69.43044
G1 X66.012 Y69.155 E69.50991
G1 X66.141 Y69.208 E69.52665
G1 X80.708 Y54.641 E71.99875
G1 X80.655 Y54.512 E72.01548
G1 X80.402 Y53.9 E72.09495
G1 X65.4 Y53.9 E73.89519
G0 F3600 X65.4 Y51.1
G1 F1650 X80.402 Y51.1 E75.69543
G1 X80.655 Y50.488 E75.7749
G1 X80.708 Y50.359 E75.79164
G1 X66.141 Y35.792 E78.26374
G1 X66.012 Y35.845 E78.28047
G1 X65.4 Y36.098 E78.35994
G1 X65.4 Y51.1 E80.16018
G0 F3600 X62.6 Y51.1
G1 F1650 X62.6 Y36.098 E81.96042
G1 X61.988 Y35.845 E82.03989
G1 X61.859 Y35.792 E82.05662
G1 X47.292 Y50.359 E84.52873
G1 X47.345 Y50.488 E84.54546
G1 X47.598 Y51.1 E84.62493
G1 X62.6 Y51.1 E86.42517
G0 F3600 X46.101 Y51.011
G0 X45.4 Y33.9
G1 F1650 X45.4 Y50.902 E88.46541
G1 X46.141 Y51.208 E88.56161
G1 X47.042 Y50.307 E88.71452
G1 X47.141 Y50.208 E88.72806
G1 X61.708 Y35.641 E90.04443
G1 X61.807 Y35.542 E90.05798
G1 X62.708 Y34.641 E90.21088
G1 X62.402 Y33.9 E90.30709
G1 X45.4 Y33.9 E92.34733
G0 F3600 X45.4 Y14.808
G1 F1650 X45.4 Y15.037 E92.37481
G1 X45.4 Y15.038 E92.37493
G1 X45.4 Y19.962 E92.96581
G1 X45.4 Y19.963 E92.96593
G1 X45.4 Y20.192 E92.99341
G1 X45.627 Y20.16 E93.01055
G1 X46.154 Y20.084 E93.07445
G1 X46.155 Y20.083 E93.07462
G1 X46.366 Y20.054 E93.10018
G1 X46.381 Y20.267 E93.11645
G1 X46.442 Y21.1 E93.21667
G1 X81.558 Y21.1 E97.43059
G1 X81.619 Y20.267 E97.53082
G1 X81.634 Y20.054 E97.55645
G1 X81.845 Y20.084 E97.57265
G1 X82.373 Y20.16 E97.63667
G1 X82.6 Y20.192 E97.66418
G1 X82.6 Y19.963 E97.68131
G1 X82.6 Y19.962 E97.68143
G1 X82.6 Y15.038 E98.27231
G1 X82.6 Y15.037 E98.27243
G1 X82.6 Y14.808 E98.29991
G1 X82.373 Y14.84 E98.31706
G1 X81.846 Y14.916 E98.38095
G1 X81.845 Y14.917 E98.38112
G1 X81.634 Y14.946 E98.40668
G1 X81.619 Y14.733 E98.42295
G1 X81.558 Y13.9 E98.52318
G1 X67.089 Y13.9 E100.25946
G1 X67.089 Y13.1 E100.35546
G1 X83.752 Y13.1 E102.35502
G1 X88.751 Y18.1 E103.20346
G1 X90.4 Y18.1 E103.40134
G1 X90.4 Y21.9 E103.85734
G1 X83.4 Y21.9 E104.69734
G1 X83.4 Y106.9 E114.89734
G1 X44.6 Y106.9 E119.55334
G1 X44.6 Y94.404 E121.05286
G1 X29.6 Y94.404 E122.85286
G1 X29.6 Y86.604 E123.78886
G1 X44.6 Y86.604 E125.58886
G1 X44.6 Y21.9 E133.35334
G1 X37.6 Y21.9 E134.19334
G1 X37.6 Y18.1 E134.64934
G1 X39.249 Y18.1 E134.84722
G1 X44.248 Y13.1 E135.69566
G1 X60.889 Y13.1 E137.69258
G1 X60.889 Y13.9 E137.78858
G1 X46.442 Y13.9 E139.52222
G1 X46.381 Y14.733 E139.62245
G1 X46.366 Y14.946 E139.64807
G1 X46.155 Y14.916 E139.66428
G1 X45.627 Y14.84 E139.7283
G1 X45.4 Y14.808 E139.74544
G0 F3600 X63.755 Y17.5
G1 F1650 X60.6 Y17.951 E140.12789
G1 X60.6 Y17.049 E140.23613
G1 X63.755 Y17.5 E140.61858
G0 F3600 X67.4 Y17.951
G1 F1650 X64.245 Y17.5 E141.00103
G1 X67.4 Y17.049 E141.38348
G1 X67.4 Y17.951 E141.49172
G0 F3600 X81.443 Y20.33
G0 X82.6 Y33.9
G1 F1650 X65.598 Y33.9 E143.53196
G1 X65.292 Y34.641 E143.62816
G1 X66.193 Y35.542 E143.78107
G1 X66.292 Y35.641 E143.79461
G1 X80.859 Y50.208 E145.11098
G1 X80.958 Y50.307 E145.12453
G1 X81.859 Y51.208 E145.27743
G1 X82.6 Y50.902 E145.37363
G1 X82.6 Y33.9 E147.41387
G0 F3600 X82.428 Y70.928
G0 X78.517 Y70.936
G0 X77.4 Y72.421
G1 F1650 X77.4 Y72.961 E147.47867
G1 X77.33 Y73.515 E147.54568
G1 X77.4 Y73.524 E147.55415
G1 X77.4 Y75.964 E147.84695
G1 X77.47 Y76.575 E147.92075
G1 X77.686 Y77.086 E147.98733
G1 X78.023 Y77.52 E148.05326
G1 X78.464 Y77.852 E148.1195
G1 X78.973 Y78.058 E148.1854
G1 X79.518 Y78.124 E148.25127
G1 X80.06 Y78.048 E148.31695
G1 X80.565 Y77.835 E148.38272
G1 X80.999 Y77.498 E148.44866
G1 X81.33 Y77.059 E148.51463
G1 X81.541 Y76.541 E148.58175
G1 X81.6 Y75.875 E148.66198
G1 X81.6 Y72.538 E149.06242
G1 X81.448 Y72.505 E149.08109
G1 X81.424 Y72.314 E149.10419
G1 X81.119 Y71.711 E149.18528
G1 X80.852 Y71.457 E149.2295
G1 X80.573 Y71.191 E149.27576
G1 X80.338 Y71.1 E149.306
G1 X80.573 Y71.1 E149.30878
G1 X80.959 Y71.1 E149.33851
G1 X82.6 Y71.1 E149.53543
G1 X82.6 Y54.098 E151.57567
G1 X81.859 Y53.792 E151.67187
G1 X80.958 Y54.693 E151.82478
G1 X80.859 Y54.792 E151.83832
G1 X66.292 Y69.359 E153.15469
G1 X66.193 Y69.458 E153.16824
G1 X65.292 Y70.359 E153.32114
G1 X65.598 Y71.1 E153.41735
G1 X77.992 Y71.1 E154.90463
G1 X78.357 Y71.1 E154.94843
G1 X78.635 Y71.1 E154.98179
G1 X78.357 Y71.234 E154.99024
G1 X78.077 Y71.468 E155.02031
G1 X77.954 Y71.572 E155.03964
G1 X77.645 Y72.006 E155.10357
G1 X77.493 Y72.421 E155.15661
G1 X77.4 Y72.421 E155.16777
G0 F3600 X77.627 Y76.533
G0 X81.53 Y100.438
G1 F1650 X81.314 Y99.926 E155.23445
G1 X80.977 Y99.492 E155.30039
G1 X80.536 Y99.16 E155.36663
G1 X80.027 Y98.954 E155.43252
G1 X79.482 Y98.888 E155.4984
G1 X78.94 Y98.964 E155.56407
G1 X78.435 Y99.177 E155.62984
G1 X78.001 Y99.514 E155.69578
G1 X77.669 Y99.954 E155.76193
G1 X77.464 Y100.462 E155.82766
G1 X77.4 Y100.952 E155.88696
G1 X77.4 Y104.036 E156.25704
G1 X77.457 Y104.503 E156.3135
G1 X77.637 Y104.98 E156.37468
G1 X77.927 Y105.398 E156.43573
G1 X78.307 Y105.734 E156.4966
G1 X78.758 Y105.97 E156.55768
G1 X79.252 Y106.089 E156.61865
G1 X79.761 Y106.088 E156.67973
G1 X80.253 Y105.964 E156.74062
G1 X80.702 Y105.727 E156.80155
G1 X81.081 Y105.388 E156.86256
G1 X81.37 Y104.966 E156.92394
G1 X81.547 Y104.479 E156.98612
G1 X81.6 Y104.026 E157.04085
G1 X81.6 Y101.048 E157.39821
G1 X81.53 Y100.438 E157.47189
G0 F3600 X81.139 Y100.541
;TYPE:WALL-OUTER
G1 F1650 X80.966 Y100.13 E157.5254
G1 X80.694 Y99.779 E157.57869
G1 X80.338 Y99.511 E157.63216
G1 X79.926 Y99.345 E157.68546
G1 X79.486 Y99.291 E157.73866
G1 X79.047 Y99.353 E157.79186
G1 X78.639 Y99.525 E157.845
G1 X78.288 Y99.797 E157.89828
G1 X78.02 Y100.153 E157.95175
G1 X77.854 Y100.564 E158.00495
G1 X77.8 Y100.978 E158.05505
G1 X77.8 Y104.012 E158.41913
G1 X77.848 Y104.407 E158.46687
G1 X77.994 Y104.792 E158.51629
G1 X78.228 Y105.13 E158.56562
G1 X78.536 Y105.402 E158.61493
G1 X78.9 Y105.593 E158.66425
G1 X79.299 Y105.689 E158.7135
G1 X79.711 Y105.688 E158.76294
G1 X80.109 Y105.588 E158.81219
G1 X80.472 Y105.396 E158.86146
G1 X80.778 Y105.122 E158.91075
G1 X81.011 Y104.782 E158.96021
G1 X81.155 Y104.386 E159.01078
G1 X81.2 Y104.003 E159.05705
G1 X81.2 Y101.071 E159.40889
G1 X81.139 Y100.541 E159.47291
G0 F3600 X81.062 Y100.357
G0 X81.338 Y100.242
G0 X77.561 Y75.957
G0 X77.522 Y73.366
G0 X77.8 Y72.821
G1 F1650 X77.8 Y72.987 E159.49283
G1 X77.777 Y73.17 E159.51497
G1 X77.8 Y73.173 E159.51775
G1 X77.8 Y75.941 E159.84991
G1 X77.861 Y76.472 E159.91405
G1 X78.034 Y76.882 E159.96745
G1 X78.306 Y77.233 E160.02074
G1 X78.662 Y77.501 E160.07421
G1 X79.074 Y77.667 E160.12751
G1 X79.514 Y77.721 E160.18071
G1 X79.953 Y77.659 E160.23391
G1 X80.361 Y77.487 E160.28704
G1 X80.712 Y77.215 E160.34033
G1 X80.979 Y76.86 E160.39363
G1 X81.148 Y76.446 E160.44729
G1 X81.2 Y75.857 E160.51825
G1 X81.2 Y72.86 E160.87789
G1 X81.086 Y72.835 E160.89189
G1 X81.036 Y72.433 E160.9405
G1 X80.793 Y71.953 E161.00507
G1 X80.355 Y71.535 E161.07772
G1 X79.819 Y71.328 E161.14667
G1 X79.376 Y71.304 E161.19991
G1 X78.959 Y71.388 E161.25095
G1 X78.576 Y71.573 E161.30199
G1 X78.25 Y71.846 E161.35302
G1 X78.002 Y72.194 E161.4043
G1 X77.846 Y72.62 E161.45874
G1 X77.821 Y72.821 E161.48304
G1 X77.8 Y72.821 E161.48524
G0 F3600 X77.8 Y72.987
G0 X77.796 Y73.02
G0 X77.796 Y72.721
G0 X78.074 Y71.68
G0 X78.928 Y71.153
G0 X82.428 Y70.928
G0 X82.2 Y70.7
G1 F1650 X82.2 Y54.526 E163.42612
G1 X82.2 Y54.366 E163.44532
G1 X81.953 Y54.264 E163.47738
G1 X81.84 Y54.377 E163.4936
G1 X65.877 Y70.34 E166.20261
G1 X65.764 Y70.453 E166.22179
G1 X65.866 Y70.7 E166.25386
G1 X66.026 Y70.7 E166.27012
G1 X82.2 Y70.7 E168.211
G0 F3600 X82.2 Y70.5
G0 X82.5 Y70.5
G0 X82.433 Y54.21
G0 X65.8 Y54
G0 X65.8 Y54.3
G1 F1650 X65.8 Y68.474 E169.91188
G1 X65.8 Y68.634 E169.93108
G1 X66.047 Y68.736 E169.96314
G1 X66.16 Y68.623 E169.97936
G1 X80.123 Y54.66 E172.34896
G1 X80.236 Y54.547 E172.36814
G1 X80.134 Y54.3 E172.40021
G1 X79.974 Y54.3 E172.41647
G1 X65.8 Y54.3 E174.11735
G0 F3600 X65.8 Y54.5
G0 X65.5 Y54.5
G0 X62.2 Y54
G0 X62.2 Y54.3
G1 F1650 X48.026 Y54.3 E175.81823
G1 X47.866 Y54.3 E175.83743
G1 X47.764 Y54.547 E175.86949
G1 X47.877 Y54.66 E175.88571
G1 X61.84 Y68.623 E178.25531
G1 X61.953 Y68.736 E178.27449
G1 X62.2 Y68.634 E178.30656
G1 X62.2 Y68.474 E178.32281
G1 X62.2 Y54.3 E180.02369
G0 F3600 X62 Y54.3
G0 X62 Y54
G0 X62.5 Y50.7
G0 X62.2 Y50.7
G1 F1650 X62.2 Y36.526 E181.72457
G1 X62.2 Y36.366 E181.74377
G1 X61.953 Y36.264 E181.77584
G1 X61.84 Y36.377 E181.79206
